;FLAVOR:Marlin
;TIME:5960
;Filament used: 3.78621m
;Layer height: 0.2
;MINX:37
;MINY:73.695
;MINZ:0.2
;MAXX:198
;MAXY:161.305
;MAXZ:3
;Generated with Cura_SteamEngine 4.11.0
M140 S70
M105
M190 S70
M104 S220
M105
M109 S220
M82 ;absolute extrusion mode
; Ender 3 Custom Start G-code
G92 E0 ; Reset Extruder
G28 ; Home all axes
G1 Z2.0 F3000 ; Move Z Axis up little to prevent scratching of Heat Bed
G1 X0.1 Y20 Z0.3 F5000.0 ; Move to start position
G1 X0.1 Y200.0 Z0.3 F1500.0 E15 ; Draw the first line
G1 X0.4 Y200.0 Z0.3 F5000.0 ; Move to side a little
G1 X0.4 Y20 Z0.3 F1500.0 E30 ; Draw the second line
G92 E0 ; Reset Extruder
G1 Z2.0 F3000 ; Move Z Axis up little to prevent scratching of Heat Bed
G1 X5 Y20 Z0.3 F5000.0 ; Move over to prevent blob squish
G92 E0
G92 E0
G1 F1500 E-6.5
;LAYER_COUNT:15
;LAYER:0
M107
G0 F6000 X42.412 Y75.234 Z0.2
;TYPE:SKIRT
G1 F1500 E0
G1 F1200 X43.239 Y74.792 E0.03119
G1 X44.101 Y74.422 E0.06239
G1 X44.991 Y74.126 E0.09358
G1 X45.903 Y73.908 E0.12477
G1 X46.83 Y73.767 E0.15596
G1 X47.701 Y73.708 E0.18499
G1 X48.022 Y73.699 E0.19567
G1 X48.33 Y73.695 E0.20592
G1 X106.293 Y73.695 E2.13378
G1 X107.149 Y73.706 E2.16225
G1 X107.753 Y73.731 E2.18236
G1 X108.124 Y73.762 E2.19474
G1 X108.656 Y73.815 E2.21252
G1 X111.2 Y74.031 E2.29744
G1 X113.74 Y74.174 E2.38205
G1 X116.264 Y74.245 E2.46604
G1 X118.787 Y74.245 E2.54995
G1 X121.283 Y74.173 E2.633
G1 X123.785 Y74.032 E2.71635
G1 X126.348 Y73.813 E2.80191
G1 X126.734 Y73.774 E2.81481
G1 X127.055 Y73.746 E2.82553
G1 X127.701 Y73.708 E2.84705
G1 X128.02 Y73.699 E2.85767
G1 X128.33 Y73.695 E2.86798
G1 X186.435 Y73.696 E4.80056
G1 X187.133 Y73.705 E4.82378
G1 X188.069 Y73.757 E4.85495
G1 X188.998 Y73.889 E4.88616
G1 X189.912 Y74.099 E4.91736
G1 X190.805 Y74.386 E4.94855
G1 X191.67 Y74.749 E4.97975
G1 X192.501 Y75.183 E5.01094
G1 X193.292 Y75.687 E5.04213
G1 X194.037 Y76.257 E5.07333
G1 X194.731 Y76.888 E5.10453
G1 X195.368 Y77.575 E5.13569
G1 X195.945 Y78.315 E5.1669
G1 X196.457 Y79.101 E5.1981
G1 X196.9 Y79.928 E5.2293
G1 X197.271 Y80.789 E5.26048
G1 X197.567 Y81.679 E5.29168
G1 X197.786 Y82.591 E5.32288
G1 X197.927 Y83.518 E5.35406
G1 X197.987 Y84.396 E5.38333
G1 X197.996 Y84.717 E5.39401
G1 X198 Y85.025 E5.40426
G1 X197.999 Y149.705 E7.55552
G1 X197.99 Y150.432 E7.57971
G1 X197.939 Y151.369 E7.61092
G1 X197.807 Y152.297 E7.64209
G1 X197.598 Y153.211 E7.67328
G1 X197.311 Y154.104 E7.70447
G1 X196.949 Y154.97 E7.73569
G1 X196.515 Y155.801 E7.76687
G1 X196.011 Y156.592 E7.79807
G1 X195.442 Y157.337 E7.82925
G1 X194.811 Y158.032 E7.86047
G1 X194.124 Y158.67 E7.89165
G1 X193.385 Y159.247 E7.92284
G1 X192.599 Y159.759 E7.95404
G1 X191.773 Y160.202 E7.98521
G1 X190.911 Y160.574 E8.01644
G1 X190.022 Y160.87 E8.0476
G1 X189.11 Y161.09 E8.07881
G1 X188.183 Y161.231 E8.10999
G1 X187.299 Y161.292 E8.13947
G1 X186.978 Y161.301 E8.15015
G1 X186.67 Y161.305 E8.16039
G1 X180.079 Y161.304 E8.37961
G1 X179.591 Y161.297 E8.39584
G1 X176.972 Y161.297 E8.48295
G1 X176.707 Y161.302 E8.49176
G1 X176.261 Y161.305 E8.5066
G1 X139.079 Y161.304 E9.74328
G1 X138.591 Y161.297 E9.75951
G1 X135.972 Y161.297 E9.84662
G1 X135.707 Y161.302 E9.85543
G1 X135.261 Y161.305 E9.87027
G1 X128.549 Y161.304 E10.09351
G1 X127.852 Y161.294 E10.11669
G1 X127.276 Y161.271 E10.13587
G1 X126.873 Y161.238 E10.14932
G1 X126.33 Y161.184 E10.16747
G1 X123.8 Y160.969 E10.25192
G1 X121.261 Y160.826 E10.3365
G1 X118.736 Y160.755 E10.42051
G1 X116.212 Y160.755 E10.50446
G1 X113.717 Y160.827 E10.58748
G1 X111.214 Y160.968 E10.67086
G1 X108.652 Y161.187 E10.75639
G1 X108.269 Y161.226 E10.76919
G1 X107.949 Y161.254 E10.77987
G1 X107.299 Y161.292 E10.80153
G1 X106.979 Y161.301 E10.81218
G1 X106.67 Y161.305 E10.82246
G1 X100.079 Y161.304 E11.04167
G1 X99.591 Y161.297 E11.05791
G1 X96.972 Y161.297 E11.14501
G1 X96.707 Y161.302 E11.15383
G1 X96.261 Y161.305 E11.16866
G1 X59.079 Y161.304 E12.40534
G1 X58.591 Y161.297 E12.42158
G1 X55.972 Y161.297 E12.50868
G1 X55.707 Y161.302 E12.5175
G1 X55.261 Y161.305 E12.53233
G1 X48.549 Y161.304 E12.75558
G1 X47.851 Y161.294 E12.77879
G1 X46.915 Y161.24 E12.80998
G1 X45.987 Y161.108 E12.84115
G1 X45.073 Y160.896 E12.87236
G1 X44.181 Y160.607 E12.90355
G1 X43.316 Y160.244 E12.93475
G1 X42.486 Y159.808 E12.96593
G1 X41.695 Y159.303 E12.99714
G1 X40.951 Y158.732 E13.02834
G1 X40.258 Y158.1 E13.05953
G1 X39.621 Y157.412 E13.09072
G1 X39.046 Y156.671 E13.12191
G1 X38.535 Y155.885 E13.15309
G1 X38.093 Y155.057 E13.18431
G1 X37.724 Y154.195 E13.2155
G1 X37.429 Y153.305 E13.24668
G1 X37.211 Y152.393 E13.27787
G1 X37.071 Y151.465 E13.30909
G1 X37.013 Y150.593 E13.33815
G1 X37.004 Y150.261 E13.3492
G1 X37 Y149.963 E13.35911
G1 X37.001 Y85.22 E15.51247
G1 X37.01 Y84.555 E15.53459
G1 X37.063 Y83.619 E15.56577
G1 X37.195 Y82.69 E15.59698
G1 X37.406 Y81.776 E15.62818
G1 X37.694 Y80.884 E15.65936
G1 X38.057 Y80.019 E15.69056
G1 X38.492 Y79.188 E15.72176
G1 X38.996 Y78.398 E15.75292
G1 X39.566 Y77.653 E15.78412
G1 X40.198 Y76.959 E15.81534
G1 X40.886 Y76.322 E15.84653
G1 X41.626 Y75.746 E15.87772
G1 X42.412 Y75.234 E15.90892
G0 F6000 X42.791 Y75.477
G1 F1200 X43.611 Y75.059 E15.93953
G1 X44.465 Y74.714 E15.97016
G1 X45.345 Y74.444 E16.00078
G1 X46.245 Y74.252 E16.03139
G1 X47.159 Y74.138 E16.06202
G1 X47.712 Y74.108 E16.08044
G1 X48.033 Y74.099 E16.09112
G1 X48.33 Y74.095 E16.101
G1 X106.293 Y74.095 E18.02886
G1 X107.143 Y74.106 E18.05713
G1 X107.727 Y74.13 E18.07657
G1 X108.085 Y74.16 E18.08852
G1 X108.58 Y74.209 E18.10507
G1 X111.214 Y74.434 E18.19299
G1 X113.707 Y74.574 E18.27604
G1 X116.253 Y74.645 E18.36075
G1 X118.764 Y74.645 E18.44427
G1 X121.315 Y74.572 E18.52915
G1 X123.843 Y74.429 E18.61337
G1 X126.374 Y74.212 E18.69786
G1 X126.769 Y74.172 E18.71106
G1 X127.09 Y74.144 E18.72178
G1 X127.712 Y74.108 E18.7425
G1 X128.031 Y74.099 E18.75312
G1 X128.33 Y74.095 E18.76306
G1 X186.43 Y74.096 E20.69548
G1 X187.128 Y74.105 E20.71869
G1 X188.047 Y74.157 E20.74931
G1 X188.958 Y74.288 E20.77992
G1 X189.854 Y74.498 E20.81053
G1 X190.729 Y74.785 E20.84116
G1 X191.576 Y75.147 E20.87179
G1 X192.388 Y75.581 E20.90242
G1 X193.159 Y76.083 E20.93302
G1 X193.884 Y76.651 E20.96365
G1 X194.557 Y77.28 E20.99429
G1 X195.172 Y77.964 E21.02488
G1 X195.726 Y78.699 E21.05549
G1 X196.214 Y79.48 E21.08612
G1 X196.633 Y80.3 E21.11675
G1 X196.979 Y81.153 E21.14737
G1 X197.249 Y82.033 E21.17798
G1 X197.442 Y82.934 E21.20863
G1 X197.556 Y83.847 E21.23923
G1 X197.587 Y84.407 E21.25789
G1 X197.596 Y84.728 E21.26857
G1 X197.6 Y85.025 E21.27845
G1 X197.599 Y149.7 E23.42955
G1 X197.59 Y150.427 E23.45373
G1 X197.539 Y151.346 E23.48434
G1 X197.408 Y152.258 E23.51498
G1 X197.198 Y153.154 E23.54559
G1 X196.912 Y154.029 E23.57621
G1 X196.551 Y154.876 E23.60683
G1 X196.117 Y155.688 E23.63746
G1 X195.615 Y156.46 E23.66809
G1 X195.047 Y157.185 E23.69872
G1 X194.419 Y157.858 E23.72933
G1 X193.735 Y158.474 E23.75995
G1 X193 Y159.028 E23.79056
G1 X192.22 Y159.517 E23.82118
G1 X191.4 Y159.936 E23.85181
G1 X190.547 Y160.282 E23.88243
G1 X189.667 Y160.553 E23.91305
G1 X188.767 Y160.746 E23.94367
G1 X187.853 Y160.861 E23.97431
G1 X187.288 Y160.892 E23.99313
G1 X186.967 Y160.901 E24.00381
G1 X186.67 Y160.905 E24.01369
G1 X180.085 Y160.904 E24.2327
G1 X179.597 Y160.897 E24.24894
G1 X176.963 Y160.897 E24.33654
G1 X176.704 Y160.902 E24.34516
G1 X176.258 Y160.905 E24.35999
G1 X139.085 Y160.904 E25.59637
G1 X138.597 Y160.897 E25.61261
G1 X135.963 Y160.897 E25.70021
G1 X135.704 Y160.902 E25.70883
G1 X135.258 Y160.905 E25.72366
G1 X128.555 Y160.904 E25.94661
G1 X127.858 Y160.894 E25.96979
G1 X127.301 Y160.871 E25.98833
G1 X126.913 Y160.84 E26.00128
G1 X126.411 Y160.79 E26.01806
G1 X123.786 Y160.566 E26.10568
G1 X121.294 Y160.426 E26.1887
G1 X118.747 Y160.355 E26.27344
G1 X116.236 Y160.355 E26.35696
G1 X113.684 Y160.428 E26.44187
G1 X111.157 Y160.571 E26.52606
G1 X108.626 Y160.788 E26.61055
G1 X108.234 Y160.828 E26.62365
G1 X107.914 Y160.856 E26.63434
G1 X107.288 Y160.892 E26.65519
G1 X106.968 Y160.901 E26.66584
G1 X106.67 Y160.905 E26.67575
G1 X100.085 Y160.904 E26.89477
G1 X99.597 Y160.897 E26.911
G1 X96.963 Y160.897 E26.99861
G1 X96.704 Y160.902 E27.00723
G1 X96.258 Y160.905 E27.02206
G1 X59.085 Y160.904 E28.25844
G1 X58.597 Y160.897 E28.27467
G1 X55.963 Y160.897 E28.36228
G1 X55.704 Y160.902 E28.37089
G1 X55.258 Y160.905 E28.38573
G1 X48.555 Y160.904 E28.60867
G1 X47.857 Y160.894 E28.63189
G1 X46.938 Y160.841 E28.66251
G1 X46.027 Y160.708 E28.69313
G1 X45.131 Y160.497 E28.72374
G1 X44.257 Y160.209 E28.75435
G1 X43.41 Y159.846 E28.785
G1 X42.599 Y159.411 E28.81561
G1 X41.829 Y158.907 E28.84622
G1 X41.105 Y158.338 E28.87685
G1 X40.433 Y157.708 E28.90748
G1 X39.818 Y157.023 E28.9381
G1 X39.265 Y156.287 E28.96872
G1 X38.778 Y155.506 E28.99933
G1 X38.361 Y154.685 E29.02996
G1 X38.016 Y153.831 E29.06059
G1 X37.747 Y152.951 E29.0912
G1 X37.555 Y152.05 E29.12184
G1 X37.442 Y151.137 E29.15244
G1 X37.413 Y150.582 E29.17092
G1 X37.404 Y150.25 E29.18197
G1 X37.4 Y149.963 E29.19152
G1 X37.401 Y85.226 E31.34468
G1 X37.41 Y84.561 E31.3668
G1 X37.462 Y83.641 E31.39745
G1 X37.594 Y82.73 E31.42806
G1 X37.805 Y81.834 E31.45868
G1 X38.092 Y80.959 E31.48931
G1 X38.455 Y80.113 E31.51993
G1 X38.889 Y79.301 E31.55055
G1 X39.392 Y78.53 E31.58117
G1 X39.961 Y77.806 E31.61179
G1 X40.589 Y77.134 E31.64238
G1 X41.274 Y76.518 E31.67303
G1 X42.01 Y75.965 E31.70364
G1 X42.791 Y75.477 E31.73427
G0 F6000 X43.169 Y75.726
G1 F1200 X43.982 Y75.333 E31.76431
G1 X44.827 Y75.013 E31.79436
G1 X45.696 Y74.77 E31.82437
G1 X46.584 Y74.604 E31.85442
G1 X47.723 Y74.508 E31.89244
G1 X48.044 Y74.499 E31.90312
G1 X48.33 Y74.495 E31.91263
G1 X106.293 Y74.495 E33.84049
G1 X107.137 Y74.506 E33.86856
G1 X107.701 Y74.53 E33.88734
G1 X108.045 Y74.558 E33.89882
G1 X108.575 Y74.611 E33.91653
G1 X111.159 Y74.831 E34.00279
G1 X113.708 Y74.974 E34.0877
G1 X116.242 Y75.045 E34.17202
G1 X118.775 Y75.045 E34.25626
G1 X121.315 Y74.972 E34.34078
G1 X123.863 Y74.828 E34.42566
G1 X126.45 Y74.607 E34.51202
G1 X126.804 Y74.571 E34.52385
G1 X127.125 Y74.543 E34.53457
G1 X127.723 Y74.508 E34.55449
G1 X128.042 Y74.499 E34.56511
G1 X128.33 Y74.495 E34.57469
G1 X186.425 Y74.496 E36.50694
G1 X187.123 Y74.505 E36.53015
G1 X188.024 Y74.556 E36.56017
G1 X188.918 Y74.688 E36.59023
G1 X189.796 Y74.897 E36.62024
G1 X190.653 Y75.184 E36.6503
G1 X191.48 Y75.545 E36.68032
G1 X192.273 Y75.978 E36.71037
G1 X193.024 Y76.479 E36.74039
G1 X193.728 Y77.045 E36.77044
G1 X194.379 Y77.671 E36.80048
G1 X194.972 Y78.352 E36.83051
G1 X195.502 Y79.083 E36.86054
G1 X195.966 Y79.858 E36.89059
G1 X196.36 Y80.671 E36.92063
G1 X196.68 Y81.515 E36.95066
G1 X196.924 Y82.385 E36.98071
G1 X197.09 Y83.273 E37.01076
G1 X197.187 Y84.418 E37.04897
G1 X197.196 Y84.739 E37.05966
G1 X197.2 Y85.025 E37.06917
G1 X197.199 Y149.695 E39.2201
G1 X197.19 Y150.422 E39.24428
G1 X197.139 Y151.324 E39.27433
G1 X197.008 Y152.218 E39.30438
G1 X196.799 Y153.096 E39.3344
G1 X196.513 Y153.953 E39.36445
G1 X196.152 Y154.781 E39.39449
G1 X195.72 Y155.573 E39.4245
G1 X195.219 Y156.325 E39.45455
G1 X194.653 Y157.029 E39.4846
G1 X194.028 Y157.68 E39.51461
G1 X193.347 Y158.274 E39.54467
G1 X192.616 Y158.805 E39.57472
G1 X191.842 Y159.269 E39.60474
G1 X191.029 Y159.663 E39.63478
G1 X190.185 Y159.983 E39.66481
G1 X189.315 Y160.228 E39.69487
G1 X188.428 Y160.394 E39.72488
G1 X187.277 Y160.492 E39.7633
G1 X186.956 Y160.501 E39.77398
G1 X186.67 Y160.505 E39.7835
G1 X180.091 Y160.504 E40.00232
G1 X179.603 Y160.497 E40.01855
G1 X176.954 Y160.497 E40.10665
G1 X176.702 Y160.502 E40.11504
G1 X176.256 Y160.505 E40.12987
G1 X139.091 Y160.504 E41.36598
G1 X138.603 Y160.497 E41.38222
G1 X135.954 Y160.497 E41.47032
G1 X135.702 Y160.502 E41.47871
G1 X135.256 Y160.505 E41.49354
G1 X128.561 Y160.504 E41.71622
G1 X127.864 Y160.494 E41.7394
G1 X127.326 Y160.472 E41.75731
G1 X126.952 Y160.442 E41.76979
G1 X126.41 Y160.388 E41.78791
G1 X123.841 Y160.169 E41.87366
G1 X121.293 Y160.026 E41.95854
G1 X118.758 Y159.955 E42.04289
G1 X116.224 Y159.955 E42.12717
G1 X113.685 Y160.028 E42.21165
G1 X111.136 Y160.172 E42.29657
G1 X108.55 Y160.393 E42.38289
G1 X108.199 Y160.429 E42.39463
G1 X107.879 Y160.457 E42.40531
G1 X107.277 Y160.492 E42.42537
G1 X106.957 Y160.501 E42.43602
G1 X106.67 Y160.505 E42.44556
G1 X100.091 Y160.504 E42.66438
G1 X99.603 Y160.497 E42.68061
G1 X96.954 Y160.497 E42.76872
G1 X96.702 Y160.502 E42.7771
G1 X96.256 Y160.505 E42.79194
G1 X59.091 Y160.504 E44.02805
G1 X58.603 Y160.497 E44.04428
G1 X55.954 Y160.497 E44.13239
G1 X55.702 Y160.502 E44.14077
G1 X55.256 Y160.505 E44.15561
G1 X48.561 Y160.504 E44.37828
G1 X47.863 Y160.494 E44.4015
G1 X46.961 Y160.441 E44.43155
G1 X46.068 Y160.309 E44.46158
G1 X45.19 Y160.098 E44.49161
G1 X44.334 Y159.81 E44.52165
G1 X43.507 Y159.448 E44.55168
G1 X42.715 Y159.013 E44.58173
G1 X41.964 Y158.511 E44.61177
G1 X41.261 Y157.944 E44.64181
G1 X40.611 Y157.317 E44.67185
G1 X40.019 Y156.635 E44.70189
G1 X39.489 Y155.904 E44.73192
G1 X39.027 Y155.128 E44.76196
G1 X38.634 Y154.315 E44.79199
G1 X38.316 Y153.47 E44.82202
G1 X38.073 Y152.6 E44.85206
G1 X37.908 Y151.712 E44.88211
G1 X37.813 Y150.571 E44.92019
G1 X37.804 Y150.239 E44.93123
G1 X37.8 Y149.963 E44.94041
G1 X37.801 Y85.231 E47.09341
G1 X37.81 Y84.566 E47.11553
G1 X37.862 Y83.664 E47.14558
G1 X37.994 Y82.771 E47.1756
G1 X38.204 Y81.893 E47.20563
G1 X38.491 Y81.036 E47.23569
G1 X38.853 Y80.209 E47.26572
G1 X39.286 Y79.417 E47.29574
G1 X39.788 Y78.666 E47.32578
G1 X40.355 Y77.962 E47.35585
G1 X40.981 Y77.312 E47.38586
G1 X41.662 Y76.719 E47.4159
G1 X42.394 Y76.189 E47.44595
G1 X43.169 Y75.726 E47.47598
G1 F1500 E40.97598
;MESH:Door.stl
G0 F6000 X48.314 Y84.03
G0 X48.314 Y85.009
G0 X49.998 Y146.005
G0 X51.2 Y145.379
;TYPE:WALL-INNER
G1 F1500 E47.47598
G1 F1200 X50.689 Y145.656 E47.49531
G1 X50.198 Y146.069 E47.51665
G1 X50.197 Y146.07 E47.5167
G1 X49.827 Y146.543 E47.53667
G1 X49.8 Y146.578 E47.53814
G1 X49.8 Y146.07 E47.54724
G1 X49.8 Y146.068 E47.54731
G1 X49.8 Y86.495 E49.52871
G1 X105.2 Y86.495 E51.37133
G1 X105.2 Y146.031 E53.3515
G1 X105.2 Y146.433 E53.36487
G1 X105.2 Y146.597 E53.37033
G1 X105.107 Y146.433 E53.37159
G1 X104.84 Y146.133 E53.38015
G1 X104.679 Y145.951 E53.38823
G1 X104.153 Y145.555 E53.41013
G1 X103.8 Y145.395 E53.42302
G1 X103.8 Y86.895 E55.36874
G1 X51.2 Y86.895 E57.11822
G1 X51.2 Y145.379 E59.06341
G0 F6000 X51.406 Y145.722
G1 F1200 X50.916 Y145.988 E59.08195
G1 X50.486 Y146.35 E59.10065
G1 X50.141 Y146.789 E59.11922
G1 X49.887 Y147.284 E59.13772
G1 X49.797 Y147.6 E59.14865
G1 X49.736 Y147.818 E59.15618
G1 X49.694 Y148.378 E59.17486
G1 X49.754 Y148.86 E59.19101
G1 X49.76 Y148.905 E59.19252
G1 X49.4 Y148.905 E59.20111
G1 X49.4 Y148.378 E59.21552
G1 X49.4 Y147.818 E59.23022
G1 X49.4 Y147.591 E59.23718
G1 X49.4 Y86.095 E61.28255
G1 X105.6 Y86.095 E63.15177
G1 X105.6 Y147.571 E65.19647
G1 X105.6 Y147.675 E65.19993
G1 X105.6 Y148.232 E65.21845
G1 X105.6 Y148.806 E65.23755
G1 X105.6 Y148.905 E65.24084
G1 X105.264 Y148.905 E65.24957
G1 X105.233 Y148.905 E65.25042
G1 X105.264 Y148.806 E65.25141
G1 X105.306 Y148.232 E65.26653
G1 X105.236 Y147.675 E65.28195
G1 X105.203 Y147.577 E65.28524
G1 X105.055 Y147.151 E65.30024
G1 X104.78 Y146.667 E65.31875
G1 X104.406 Y146.246 E65.33748
G1 X103.948 Y145.901 E65.35655
G1 X103.4 Y145.653 E65.37656
G1 X103.4 Y131.919 E65.83335
G1 X51.6 Y131.919 E67.55623
G1 X51.6 Y145.662 E68.01332
G1 X51.406 Y145.722 E68.02008
G0 F6000 X51.562 Y146.092
G1 F1200 X51.143 Y146.32 E68.03594
G1 X50.775 Y146.63 E68.05195
G1 X50.479 Y147.006 E68.06786
G1 X50.261 Y147.431 E68.08375
G1 X50.132 Y147.888 E68.09954
G1 X50.096 Y148.368 E68.11555
G1 X50.156 Y148.843 E68.13148
G1 X50.223 Y149.039 E68.13837
G1 X50.31 Y149.295 E68.14736
G1 X50.316 Y149.305 E68.14775
G1 X50.045 Y149.305 E68.15319
G1 X49 Y149.305 E68.18795
G1 X49 Y85.695 E70.30363
G1 X106 Y85.695 E72.19945
G1 X106 Y149.305 E74.31513
G1 X104.952 Y149.305 E74.34999
G1 X104.698 Y149.305 E74.35844
G1 X104.684 Y149.305 E74.3589
G1 X104.698 Y149.281 E74.35923
G1 X104.773 Y149.039 E74.36446
G1 X104.868 Y148.731 E74.37518
G1 X104.904 Y148.242 E74.39149
G1 X104.844 Y147.766 E74.40745
