;FLAVOR:Marlin
;TIME:3248
;Filament used: 1.27057m
;Layer height: 0.2
;MINX:101.76
;MINY:93.467
;MINZ:0.2
;MAXX:133.25
;MAXY:141.532
;MAXZ:35
;Generated with Cura_SteamEngine 4.11.0
M140 S70
M105
M190 S70
M104 S220
M105
M109 S220
M82 ;absolute extrusion mode
; Ender 3 Custom Start G-code
G92 E0 ; Reset Extruder
G28 ; Home all axes
G1 Z2.0 F3000 ; Move Z Axis up little to prevent scratching of Heat Bed
G1 X0.1 Y20 Z0.3 F5000.0 ; Move to start position
G1 X0.1 Y200.0 Z0.3 F1500.0 E15 ; Draw the first line
G1 X0.4 Y200.0 Z0.3 F5000.0 ; Move to side a little
G1 X0.4 Y20 Z0.3 F1500.0 E30 ; Draw the second line
G92 E0 ; Reset Extruder
G1 Z2.0 F3000 ; Move Z Axis up little to prevent scratching of Heat Bed
G1 X5 Y20 Z0.3 F5000.0 ; Move over to prevent blob squish
G92 E0
G92 E0
G1 F1500 E-6.5
;LAYER_COUNT:175
;LAYER:0
M107
G0 F6000 X107.238 Y96.951 Z0.2
;TYPE:SKIRT
G1 F1500 E0
G1 F1200 X107.908 Y96.295 E0.03119
G1 X108.632 Y95.698 E0.0624
G1 X109.403 Y95.166 E0.09355
G1 X110.218 Y94.701 E0.12476
G1 X111.069 Y94.307 E0.15595
G1 X111.951 Y93.987 E0.18716
G1 X112.856 Y93.743 E0.21834
G1 X113.779 Y93.577 E0.24953
G1 X114.951 Y93.481 E0.28864
G1 X115.271 Y93.472 E0.29929
G1 X115.576 Y93.468 E0.30943
G1 X118.253 Y93.467 E0.39847
G1 X121.583 Y93.469 E0.50922
G1 X122.284 Y93.479 E0.53254
G1 X123.22 Y93.532 E0.56372
G1 X124.149 Y93.665 E0.59494
G1 X125.062 Y93.877 E0.62611
G1 X125.955 Y94.165 E0.65732
G1 X126.819 Y94.529 E0.6885
G1 X127.65 Y94.965 E0.71972
G1 X128.44 Y95.47 E0.7509
G1 X129.184 Y96.04 E0.78207
G1 X129.871 Y96.665 E0.81296
G1 X129.984 Y96.777 E0.81826
G1 X130.621 Y97.465 E0.84944
G1 X131.197 Y98.205 E0.88063
G1 X131.709 Y98.991 E0.91183
G1 X132.151 Y99.818 E0.94302
G1 X132.522 Y100.68 E0.97423
G1 X132.817 Y101.57 E1.00542
G1 X133.036 Y102.482 E1.03661
G1 X133.176 Y103.409 E1.06779
G1 X133.231 Y104.15 E1.09251
G1 X133.244 Y104.58 E1.10682
G1 X133.25 Y105.122 E1.12484
G1 X133.249 Y108.213 E1.22765
G1 X133.238 Y108.93 E1.2515
G1 X133.2 Y109.692 E1.27688
G1 X132.972 Y112.374 E1.3664
G1 X132.833 Y114.846 E1.44875
G1 X132.75 Y118.776 E1.57949
G1 X132.749 Y125.891 E1.81614
G1 X132.724 Y127.62 E1.87365
G1 X132.695 Y128.643 E1.90769
G1 X132.687 Y129.682 E1.94225
G1 X132.675 Y130.56 E1.97145
G1 X132.622 Y131.497 E2.00267
G1 X132.49 Y132.425 E2.03384
G1 X132.279 Y133.339 E2.06504
G1 X131.991 Y134.232 E2.09625
G1 X131.628 Y135.096 E2.12742
G1 X131.192 Y135.927 E2.15863
G1 X130.688 Y136.718 E2.18983
G1 X130.118 Y137.462 E2.221
G1 X129.454 Y138.188 E2.25373
G1 X129.342 Y138.3 E2.25899
G1 X128.651 Y138.934 E2.29018
G1 X127.909 Y139.508 E2.32139
G1 X127.12 Y140.015 E2.35258
G1 X126.292 Y140.454 E2.38375
G1 X125.428 Y140.821 E2.41497
G1 X124.537 Y141.113 E2.44616
G1 X123.624 Y141.327 E2.47735
G1 X122.696 Y141.464 E2.50855
G1 X121.935 Y141.516 E2.53392
G1 X121.55 Y141.526 E2.54673
G1 X121.007 Y141.532 E2.56479
G1 X117.853 Y141.531 E2.66969
G1 X117.151 Y141.521 E2.69304
G1 X116.215 Y141.468 E2.72422
G1 X115.287 Y141.335 E2.7554
G1 X114.373 Y141.123 E2.78661
G1 X113.48 Y140.835 E2.81782
G1 X112.616 Y140.471 E2.849
G1 X111.785 Y140.035 E2.88021
G1 X110.995 Y139.53 E2.9114
G1 X110.251 Y138.96 E2.94257
G1 X109.378 Y138.145 E2.98229
G1 X109.254 Y138.016 E2.98825
G1 X108.633 Y137.313 E3.01944
G1 X107.936 Y136.349 E3.05901
G1 X107.706 Y135.99 E3.07319
G1 X106.581 Y134.192 E3.14373
G1 X104.667 Y131.343 E3.25789
G1 X104.399 Y130.961 E3.27341
G1 X104.075 Y130.472 E3.29292
G1 X103.987 Y130.331 E3.29845
G1 X103.732 Y129.9 E3.3151
G1 X103.633 Y129.724 E3.32182
G1 X103.36 Y129.208 E3.34124
G1 X103.268 Y129.022 E3.34814
G1 X103.04 Y128.531 E3.36614
G1 X102.97 Y128.37 E3.37198
G1 X102.77 Y127.877 E3.38968
G1 X102.686 Y127.655 E3.39757
G1 X102.477 Y127.05 E3.41886
G1 X102.425 Y126.884 E3.42465
G1 X102.274 Y126.357 E3.44288
G1 X102.218 Y126.141 E3.4503
G1 X102.081 Y125.545 E3.47064
G1 X102.03 Y125.291 E3.47926
G1 X101.953 Y124.86 E3.49382
G1 X101.934 Y124.741 E3.49783
G1 X101.863 Y124.216 E3.51545
G1 X101.841 Y124.017 E3.52211
G1 X101.796 Y123.501 E3.53934
G1 X101.783 Y123.295 E3.5462
G1 X101.762 Y122.728 E3.56507
G1 X101.76 Y122.554 E3.57086
G1 X101.767 Y121.998 E3.58936
G1 X101.776 Y121.768 E3.59701
G1 X101.814 Y121.191 E3.61624
G1 X101.83 Y121.017 E3.62206
G1 X101.89 Y120.504 E3.63923
G1 X101.92 Y120.289 E3.64645
G1 X102.004 Y119.774 E3.66381
G1 X102.094 Y119.316 E3.67933
G1 X102.354 Y118.112 E3.7203
G1 X102.376 Y117.983 E3.72465
G1 X102.523 Y117.323 E3.74714
G1 X103.001 Y114.856 E3.83072
G1 X103.41 Y112.37 E3.91452
G1 X103.746 Y109.889 E3.99779
G1 X104.016 Y107.357 E4.08248
G1 X104.213 Y104.855 E4.16596
G1 X104.242 Y104.339 E4.18315
G1 X104.288 Y103.694 E4.20465
G1 X104.394 Y102.763 E4.23582
G1 X104.58 Y101.843 E4.26704
G1 X104.843 Y100.943 E4.29822
G1 X105.182 Y100.069 E4.3294
G1 X105.594 Y99.226 E4.36061
G1 X106.077 Y98.422 E4.39181
G1 X106.626 Y97.662 E4.42299
G1 X107.238 Y96.951 E4.45419
G0 F6000 X107.623 Y97.127
G1 F1200 X108.289 Y96.492 E4.4848
G1 X109.008 Y95.917 E4.51542
G1 X109.775 Y95.407 E4.54605
G1 X110.582 Y94.965 E4.57666
G1 X111.425 Y94.595 E4.60728
G1 X112.297 Y94.299 E4.63791
G1 X113.192 Y94.081 E4.66854
G1 X114.102 Y93.94 E4.69917
G1 X114.962 Y93.881 E4.72784
G1 X115.282 Y93.872 E4.73849
G1 X115.576 Y93.868 E4.74827
G1 X118.253 Y93.867 E4.83731
G1 X121.577 Y93.869 E4.94786
G1 X122.278 Y93.879 E4.97118
G1 X123.197 Y93.932 E5.0018
G1 X124.108 Y94.065 E5.03242
G1 X125.004 Y94.276 E5.06304
G1 X125.879 Y94.564 E5.09367
G1 X126.725 Y94.927 E5.12429
G1 X127.536 Y95.362 E5.1549
G1 X128.307 Y95.866 E5.18554
G1 X129.031 Y96.435 E5.21617
G1 X129.589 Y96.949 E5.2414
G1 X129.702 Y97.061 E5.24669
G1 X130.327 Y97.737 E5.27731
G1 X130.891 Y98.465 E5.30794
G1 X131.39 Y99.239 E5.33857
G1 X131.82 Y100.053 E5.36919
G1 X132.177 Y100.901 E5.39979
G1 X132.46 Y101.777 E5.43041
G1 X132.666 Y102.675 E5.46105
G1 X132.792 Y103.587 E5.49168
G1 X132.832 Y104.166 E5.51098
G1 X132.837 Y104.291 E5.51514
G1 X132.844 Y104.585 E5.52492
G1 X132.85 Y105.122 E5.54278
G1 X132.849 Y108.207 E5.64539
G1 X132.838 Y108.924 E5.66924
G1 X132.801 Y109.658 E5.69368
G1 X132.572 Y112.354 E5.78368
G1 X132.433 Y114.814 E5.86563
G1 X132.35 Y118.768 E5.99717
G1 X132.349 Y125.885 E6.23388
G1 X132.324 Y127.609 E6.29123
G1 X132.295 Y128.629 E6.32516
G1 X132.287 Y129.677 E6.36002
G1 X132.275 Y130.555 E6.38923
G1 X132.222 Y131.474 E6.41984
G1 X132.09 Y132.385 E6.45046
G1 X131.88 Y133.281 E6.48107
G1 X131.592 Y134.156 E6.51171
G1 X131.23 Y135.002 E6.54231
G1 X130.795 Y135.814 E6.57295
G1 X130.292 Y136.585 E6.60357
G1 X129.723 Y137.309 E6.6342
G1 X129.171 Y137.905 E6.66122
G1 X129.059 Y138.017 E6.66648
G1 X128.381 Y138.639 E6.69709
G1 X127.651 Y139.2 E6.72771
G1 X126.875 Y139.696 E6.75834
G1 X126.059 Y140.122 E6.78896
G1 X125.209 Y140.476 E6.81958
G1 X124.331 Y140.754 E6.85021
G1 X123.433 Y140.956 E6.88083
G1 X122.52 Y141.079 E6.91147
G1 X121.922 Y141.116 E6.93139
G1 X121.546 Y141.126 E6.9439
G1 X121.007 Y141.132 E6.96183
G1 X117.859 Y141.131 E7.06654
G1 X117.157 Y141.121 E7.08989
G1 X116.238 Y141.068 E7.1205
G1 X115.327 Y140.935 E7.15113
G1 X114.431 Y140.724 E7.18174
G1 X113.556 Y140.436 E7.21238
G1 X112.71 Y140.073 E7.243
G1 X111.899 Y139.638 E7.27361
G1 X111.128 Y139.134 E7.30424
G1 X110.404 Y138.566 E7.33485
G1 X109.666 Y137.868 E7.36864
G1 X109.542 Y137.739 E7.37459
G1 X108.933 Y137.048 E7.40522
G1 X108.272 Y136.133 E7.44277
G1 X108.045 Y135.777 E7.45681
G1 X106.924 Y133.985 E7.52711
G1 X105.001 Y131.124 E7.64177
G1 X104.726 Y130.731 E7.65772
G1 X104.415 Y130.26 E7.67649
G1 X104.327 Y130.119 E7.68202
G1 X104.08 Y129.704 E7.69808
G1 X103.981 Y129.528 E7.7048
G1 X103.719 Y129.031 E7.72349
G1 X103.627 Y128.845 E7.73039
G1 X103.407 Y128.371 E7.74777
G1 X103.337 Y128.21 E7.75361
G1 X103.144 Y127.735 E7.77066
G1 X103.06 Y127.513 E7.77856
G1 X102.859 Y126.931 E7.79904
G1 X102.807 Y126.765 E7.80482
G1 X102.661 Y126.256 E7.82243
G1 X102.605 Y126.04 E7.82985
G1 X102.473 Y125.467 E7.84941
G1 X102.422 Y125.213 E7.85803
G1 X102.348 Y124.797 E7.87208
G1 X102.329 Y124.678 E7.87609
G1 X102.26 Y124.172 E7.89308
G1 X102.238 Y123.973 E7.89973
G1 X102.195 Y123.476 E7.91633
G1 X102.182 Y123.27 E7.92319
G1 X102.162 Y122.724 E7.94136
G1 X102.16 Y122.55 E7.94715
G1 X102.167 Y122.014 E7.96498
G1 X102.176 Y121.784 E7.97264
G1 X102.213 Y121.227 E7.9912
G1 X102.229 Y121.053 E7.99701
G1 X102.286 Y120.559 E8.01355
G1 X102.316 Y120.344 E8.02077
G1 X102.397 Y119.848 E8.03749
G1 X102.429 Y119.678 E8.04324
G1 X102.485 Y119.401 E8.05264
G1 X102.731 Y118.263 E8.09137
G1 X102.766 Y118.07 E8.09789
G1 X102.912 Y117.414 E8.12024
G1 X103.401 Y114.891 E8.20572
G1 X103.802 Y112.452 E8.28793
G1 X104.146 Y109.914 E8.37312
G1 X104.411 Y107.434 E8.45607
G1 X104.612 Y104.867 E8.54171
G1 X104.641 Y104.368 E8.55834
G1 X104.687 Y103.723 E8.57984
G1 X104.792 Y102.808 E8.61048
G1 X104.976 Y101.906 E8.6411
G1 X105.238 Y101.024 E8.6717
G1 X105.576 Y100.167 E8.70234
G1 X105.986 Y99.343 E8.73295
G1 X106.467 Y98.558 E8.76357
G1 X107.014 Y97.817 E8.7942
G1 X107.623 Y97.127 E8.82481
G0 F6000 X108.007 Y97.305
G1 F1200 X108.67 Y96.692 E8.85485
G1 X109.384 Y96.14 E8.88486
G1 X110.145 Y95.652 E8.91493
G1 X110.945 Y95.235 E8.94494
G1 X111.78 Y94.889 E8.975
G1 X112.641 Y94.619 E9.00501
G1 X113.524 Y94.426 E9.03507
G1 X114.419 Y94.312 E9.06508
G1 X114.973 Y94.281 E9.08354
G1 X115.293 Y94.272 E9.09418
G1 X115.576 Y94.268 E9.1036
G1 X118.253 Y94.267 E9.19264
G1 X121.571 Y94.269 E9.30299
G1 X122.272 Y94.279 E9.32631
G1 X123.174 Y94.332 E9.35636
G1 X124.067 Y94.464 E9.38639
G1 X124.946 Y94.675 E9.41645
G1 X125.802 Y94.963 E9.44649
G1 X126.629 Y95.325 E9.47652
G1 X127.421 Y95.759 E9.50656
G1 X128.171 Y96.262 E9.53659
G1 X128.874 Y96.829 E9.56663
G1 X129.307 Y97.234 E9.58635
G1 X129.42 Y97.346 E9.59164
G1 X130.033 Y98.009 E9.62167
G1 X130.585 Y98.724 E9.65172
G1 X131.071 Y99.485 E9.68175
G1 X131.488 Y100.286 E9.71179
G1 X131.832 Y101.121 E9.74182
G1 X132.101 Y101.983 E9.77186
G1 X132.293 Y102.866 E9.80191
G1 X132.432 Y104.182 E9.84592
G1 X132.444 Y104.59 E9.8595
G1 X132.45 Y105.122 E9.8772
G1 X132.449 Y108.2 E9.97957
G1 X132.438 Y108.917 E10.00342
G1 X132.402 Y109.624 E10.02697
G1 X132.175 Y112.296 E10.11616
G1 X132.033 Y114.813 E10.20001
G1 X131.95 Y118.759 E10.33128
G1 X131.949 Y125.88 E10.56813
G1 X131.924 Y127.598 E10.62527
G1 X131.895 Y128.615 E10.65911
G1 X131.887 Y129.671 E10.69424
G1 X131.875 Y130.549 E10.72344
G1 X131.823 Y131.451 E10.75349
G1 X131.691 Y132.344 E10.78352
G1 X131.481 Y133.223 E10.81357
G1 X131.193 Y134.079 E10.84361
G1 X130.831 Y134.906 E10.87364
G1 X130.398 Y135.699 E10.90369
G1 X129.896 Y136.449 E10.93371
G1 X129.329 Y137.153 E10.96377
G1 X128.888 Y137.622 E10.98518
G1 X128.776 Y137.734 E10.99045
G1 X128.11 Y138.344 E11.02049
G1 X127.393 Y138.893 E11.05053
G1 X126.629 Y139.375 E11.08057
G1 X125.826 Y139.789 E11.11062
G1 X124.99 Y140.129 E11.14064
G1 X124.127 Y140.395 E11.17067
G1 X123.244 Y140.583 E11.2007
G1 X121.908 Y140.716 E11.24535
G1 X121.541 Y140.726 E11.25757
G1 X121.007 Y140.732 E11.27533
G1 X117.865 Y140.731 E11.37983
G1 X117.163 Y140.721 E11.40318
G1 X116.261 Y140.668 E11.43323
G1 X115.368 Y140.536 E11.46326
G1 X114.49 Y140.325 E11.49329
G1 X113.634 Y140.037 E11.52333
G1 X112.806 Y139.675 E11.55339
G1 X112.014 Y139.241 E11.58343
G1 X111.264 Y138.738 E11.61346
G1 X110.561 Y138.172 E11.64348
G1 X109.954 Y137.591 E11.67143
G1 X109.83 Y137.462 E11.67738
G1 X109.234 Y136.783 E11.70743
G1 X108.609 Y135.916 E11.74298
G1 X108.384 Y135.565 E11.75684
G1 X107.258 Y133.764 E11.82749
G1 X105.328 Y130.893 E11.94255
G1 X105.054 Y130.502 E11.95843
G1 X104.754 Y130.048 E11.97653
G1 X104.666 Y129.907 E11.98205
G1 X104.429 Y129.508 E11.99749
G1 X104.33 Y129.332 E12.00421
G1 X104.077 Y128.853 E12.02222
G1 X103.985 Y128.667 E12.02913
G1 X103.774 Y128.212 E12.04581
G1 X103.704 Y128.051 E12.05165
G1 X103.518 Y127.594 E12.06806
G1 X103.434 Y127.372 E12.07595
G1 X103.24 Y126.811 E12.09569
G1 X103.188 Y126.645 E12.10148
G1 X103.048 Y126.156 E12.1184
G1 X102.992 Y125.94 E12.12582
G1 X102.866 Y125.388 E12.14465
G1 X102.815 Y125.134 E12.15327
G1 X102.743 Y124.734 E12.16679
G1 X102.724 Y124.615 E12.17079
G1 X102.658 Y124.128 E12.18714
G1 X102.636 Y123.929 E12.1938
G1 X102.594 Y123.45 E12.20979
G1 X102.581 Y123.244 E12.21666
G1 X102.562 Y122.719 E12.23413
G1 X102.56 Y122.545 E12.23992
G1 X102.567 Y122.029 E12.25708
G1 X102.576 Y121.799 E12.26474
G1 X102.611 Y121.264 E12.28257
G1 X102.627 Y121.09 E12.28838
G1 X102.682 Y120.614 E12.30432
G1 X102.712 Y120.399 E12.31154
G1 X102.79 Y119.922 E12.32761
G1 X102.822 Y119.752 E12.33337
G1 X102.876 Y119.485 E12.34243
G1 X103.099 Y118.453 E12.37754
G1 X103.157 Y118.157 E12.38758
G1 X103.302 Y117.506 E12.40976
G1 X103.789 Y114.995 E12.49483
G1 X104.199 Y112.499 E12.57896
G1 X104.546 Y109.943 E12.66475
G1 X104.809 Y107.471 E12.74744
G1 X105.013 Y104.877 E12.83398
G1 X105.04 Y104.396 E12.85
G1 X105.086 Y103.751 E12.87151
G1 X105.19 Y102.854 E12.90155
G1 X105.373 Y101.97 E12.93157
G1 X105.633 Y101.105 E12.96161
G1 X105.969 Y100.267 E12.99164
G1 X106.378 Y99.462 E13.02167
G1 X106.857 Y98.696 E13.05172
G1 X107.401 Y97.975 E13.08176
G1 X108.007 Y97.305 E13.11181
G1 F1500 E6.61181
G0 F6000 X118.407 Y103.807
G0 X120.45 Y105.868
G1 F1500 E13.11181
G1 F1200 X120.85 Y105.868 E13.12511
G1 X120.85 Y107.412 E13.17647
G1 X120.774 Y107.352 E13.17969
G1 X120.47 Y107.213 E13.19081
G1 X120.45 Y107.21 E13.19148
G1 X120.45 Y105.868 E13.23611
G0 F6000 X120.05 Y105.468
G1 F1200 X121.25 Y105.468 E13.27603
G1 X121.25 Y107.868 E13.35585
G1 X120.781 Y107.868 E13.37145
G1 X120.754 Y107.841 E13.37272
G1 X120.528 Y107.672 E13.38211
G1 X120.264 Y107.572 E13.3915
G1 X120.05 Y107.548 E13.39866
G1 X120.05 Y105.468 E13.46784
G0 F6000 X119.65 Y105.068
G1 F1200 X121.65 Y105.068 E13.53436
G1 X121.65 Y108.268 E13.64079
G1 X120.615 Y108.268 E13.67522
G1 X120.292 Y108 E13.68917
G1 X120.047 Y107.948 E13.69751
G1 X119.65 Y107.948 E13.71071
G1 X119.65 Y105.068 E13.8065
G0 F6000 X119.25 Y104.668
G1 F1200 X122.05 Y104.668 E13.89963
G1 X122.05 Y108.668 E14.03267
G1 X120.449 Y108.668 E14.08592
G1 X120.188 Y108.407 E14.09819
G1 X120.047 Y108.348 E14.10328
G1 X119.25 Y108.348 E14.12979
G1 X119.25 Y104.668 E14.25218
G1 F1500 E7.75218
G0 F6000 X122.411 Y118.311
G0 X122.411 Y126.625
G0 X121.486 Y127.468
G1 F1500 E14.25218
G1 F1200 X121.486 Y130.332 E14.34744
G1 X117.386 Y130.332 E14.48381
G1 X117.386 Y127.429 E14.58036
G1 X117.62 Y127.388 E14.58826
G1 X117.767 Y127.464 E14.59377
G1 X121.486 Y127.468 E14.71746
G0 F6000 X121.086 Y127.867
G1 F1200 X121.086 Y129.932 E14.78614
G1 X117.786 Y129.932 E14.8959
G1 X117.786 Y127.864 E14.96468
G1 X121.086 Y127.867 E15.07444
G0 F6000 X120.686 Y128.267
G1 F1200 X120.686 Y129.532 E15.11652
G1 X118.186 Y129.532 E15.19967
G1 X118.186 Y128.264 E15.24184
G1 X120.686 Y128.267 E15.32499
G0 F6000 X120.286 Y128.667
G1 F1200 X120.286 Y129.132 E15.34046
G1 X118.586 Y129.132 E15.397
G1 X118.586 Y128.665 E15.41253
G1 X120.286 Y128.667 E15.46907
G1 F1500 E8.96907
;MESH:Door pillar.stl
G0 F6000 X120.29 Y126.147
G0 X120.984 Y123.43
G0 X121.09 Y122.428
G0 X120.948 Y121.37
G0 X120.652 Y120.569
G0 X120.452 Y120.201
G0 X119.856 Y119.64
;TYPE:WALL-INNER
G1 F1500 E15.46907
G1 F1200 X119.974 Y119.468 E15.47601
G1 X120.192 Y119.468 E15.48326
G1 X120.02 Y119.556 E15.48387
G1 X119.856 Y119.64 E15.48445
G0 F6000 X119.764 Y119.068
G1 F1200 X121.15 Y119.068 E15.53055
G1 X121.15 Y120.176 E15.56741
G1 X121.15 Y120.46 E15.57685
G1 X121.15 Y120.905 E15.59165
G1 X121.15 Y121.127 E15.59904
G1 X121.086 Y120.905 E15.59987
G1 X120.889 Y120.46 E15.60706
G1 X120.759 Y120.208 E15.6149
G1 X120.522 Y119.748 E15.63211
