;FLAVOR:Marlin
;TIME:3257
;Filament used: 1.59999m
;Layer height: 0.2
;MINX:67.5
;MINY:82
;MINZ:0.2
;MAXX:167.5
;MAXY:153
;MAXZ:20
;Generated with Cura_SteamEngine 4.11.0
M140 S70
M105
M190 S70
M104 S220
M105
M109 S220
M82 ;absolute extrusion mode
; Ender 3 Custom Start G-code
G92 E0 ; Reset Extruder
G28 ; Home all axes
G1 Z2.0 F3000 ; Move Z Axis up little to prevent scratching of Heat Bed
G1 X0.1 Y20 Z0.3 F5000.0 ; Move to start position
G1 X0.1 Y200.0 Z0.3 F1500.0 E15 ; Draw the first line
G1 X0.4 Y200.0 Z0.3 F5000.0 ; Move to side a little
G1 X0.4 Y20 Z0.3 F1500.0 E30 ; Draw the second line
G92 E0 ; Reset Extruder
G1 Z2.0 F3000 ; Move Z Axis up little to prevent scratching of Heat Bed
G1 X5 Y20 Z0.3 F5000.0 ; Move over to prevent blob squish
G92 E0
G92 E0
G1 F1500 E-6.5
;LAYER_COUNT:100
;LAYER:0
M107
G0 F6000 X85.427 Y85.548 Z0.2
;TYPE:SKIRT
G1 F1500 E0
G1 F1200 X86.092 Y84.886 E0.03121
G1 X86.811 Y84.284 E0.0624
G1 X87.579 Y83.745 E0.09361
G1 X88.39 Y83.273 E0.12482
G1 X89.238 Y82.873 E0.156
G1 X90.117 Y82.546 E0.18719
G1 X91.02 Y82.294 E0.21837
G1 X91.942 Y82.121 E0.24958
G1 X93.201 Y82.013 E0.2916
G1 X93.521 Y82.004 E0.30225
G1 X93.83 Y82 E0.31253
G1 X140.793 Y82 E1.87453
G1 X141.649 Y82.011 E1.903
G1 X142.586 Y82.065 E1.93421
G1 X143.514 Y82.197 E1.96539
G1 X144.428 Y82.409 E1.9966
G1 X145.32 Y82.698 E2.02778
G1 X146.185 Y83.061 E2.05898
G1 X147.015 Y83.497 E2.09017
G1 X147.805 Y84.002 E2.12135
G1 X148.55 Y84.573 E2.15257
G1 X149.243 Y85.205 E2.18377
G1 X149.88 Y85.893 E2.21495
G1 X150.455 Y86.634 E2.24615
G1 X150.966 Y87.42 E2.27733
G1 X151.408 Y88.248 E2.30855
G1 X151.777 Y89.109 E2.3397
G1 X152.072 Y90 E2.37092
G1 X152.357 Y91.294 E2.41499
G1 X152.746 Y93.756 E2.49789
G1 X153.21 Y96.246 E2.58214
G1 X153.739 Y98.697 E2.66553
G1 X154.339 Y101.138 E2.74914
G1 X155.009 Y103.568 E2.83298
G1 X155.752 Y105.993 E2.91733
G1 X156.556 Y108.371 E3.00082
G1 X157.42 Y110.71 E3.08376
G1 X158.364 Y113.056 E3.16787
G1 X159.381 Y115.396 E3.25273
G1 X160.427 Y117.621 E3.3345
G1 X161.588 Y119.923 E3.42025
G1 X162.776 Y122.124 E3.50344
G1 X164.016 Y124.271 E3.5859
G1 X165.427 Y126.559 E3.67531
G1 X165.772 Y127.102 E3.69671
G1 X166.241 Y127.914 E3.7279
G1 X166.639 Y128.764 E3.75911
G1 X166.964 Y129.644 E3.79031
G1 X167.212 Y130.548 E3.82149
G1 X167.382 Y131.47 E3.85268
G1 X167.485 Y132.667 E3.89263
G1 X167.495 Y132.992 E3.90345
G1 X167.5 Y133.33 E3.91469
G1 X167.499 Y141.4 E4.1831
G1 X167.49 Y142.127 E4.20728
G1 X167.439 Y143.064 E4.23849
G1 X167.307 Y143.992 E4.26967
G1 X167.098 Y144.906 E4.30086
G1 X166.811 Y145.799 E4.33205
G1 X166.449 Y146.665 E4.36327
G1 X166.015 Y147.496 E4.39445
G1 X165.511 Y148.287 E4.42565
G1 X164.942 Y149.032 E4.45683
G1 X164.311 Y149.727 E4.48805
G1 X163.624 Y150.365 E4.51923
G1 X162.885 Y150.942 E4.55042
G1 X162.099 Y151.454 E4.58162
G1 X161.273 Y151.897 E4.61279
G1 X160.411 Y152.269 E4.64402
G1 X159.522 Y152.565 E4.67518
G1 X158.61 Y152.785 E4.70638
G1 X157.683 Y152.926 E4.73757
G1 X156.799 Y152.987 E4.76704
G1 X156.478 Y152.996 E4.77772
G1 X156.17 Y153 E4.78797
G1 X79.065 Y152.999 E7.35249
G1 X78.367 Y152.99 E7.37571
G1 X77.431 Y152.938 E7.40689
G1 X76.502 Y152.806 E7.4381
G1 X75.588 Y152.596 E7.46929
G1 X74.695 Y152.309 E7.50049
G1 X73.83 Y151.946 E7.53169
G1 X72.999 Y151.512 E7.56287
G1 X72.208 Y151.008 E7.59406
G1 X71.463 Y150.438 E7.62526
G1 X70.769 Y149.807 E7.65646
G1 X70.132 Y149.12 E7.68762
G1 X69.555 Y148.38 E7.71883
G1 X69.043 Y147.594 E7.75003
G1 X68.6 Y146.767 E7.78124
G1 X68.229 Y145.906 E7.81242
G1 X67.933 Y145.016 E7.84361
G1 X67.714 Y144.104 E7.87481
G1 X67.573 Y143.177 E7.906
G1 X67.513 Y142.288 E7.93563
G1 X67.504 Y141.955 E7.94671
G1 X67.5 Y141.658 E7.95659
G1 X67.501 Y133.551 E8.22623
G1 X67.511 Y132.847 E8.24965
G1 X67.564 Y131.91 E8.28086
G1 X67.697 Y130.982 E8.31204
G1 X67.909 Y130.068 E8.34325
G1 X68.197 Y129.176 E8.37443
G1 X68.561 Y128.311 E8.40564
G1 X69.137 Y127.246 E8.44591
G1 X69.528 Y126.611 E8.47071
G1 X70.342 Y125.33 E8.52119
G1 X71.609 Y123.204 E8.60351
G1 X72.84 Y120.999 E8.6875
G1 X74 Y118.774 E8.77096
G1 X75.116 Y116.481 E8.85578
G1 X76.135 Y114.223 E8.93817
G1 X77.133 Y111.843 E9.02401
G1 X78.02 Y109.533 E9.10631
G1 X78.856 Y107.165 E9.18984
G1 X79.632 Y104.753 E9.27411
G1 X80.327 Y102.363 E9.35689
G1 X80.967 Y99.902 E9.44147
G1 X81.54 Y97.423 E9.52609
G1 X82.024 Y95.003 E9.60818
G1 X82.461 Y92.452 E9.69426
G1 X82.638 Y91.325 E9.7322
G1 X82.809 Y90.461 E9.7615
G1 X83.065 Y89.559 E9.79268
G1 X83.397 Y88.682 E9.82387
G1 X83.802 Y87.836 E9.85507
G1 X84.278 Y87.028 E9.88626
G1 X84.821 Y86.263 E9.91746
G1 X85.427 Y85.548 E9.94864
G0 F6000 X85.791 Y85.745
G1 F1200 X86.45 Y85.102 E9.97926
G1 X87.163 Y84.519 E10.00989
G1 X87.923 Y84.001 E10.04048
G1 X88.726 Y83.55 E10.07111
G1 X89.565 Y83.171 E10.10173
G1 X90.433 Y82.865 E10.13235
G1 X91.325 Y82.637 E10.16297
G1 X92.234 Y82.486 E10.19362
G1 X93.212 Y82.413 E10.22623
G1 X93.532 Y82.404 E10.23688
G1 X93.83 Y82.4 E10.24679
G1 X140.793 Y82.4 E11.80879
G1 X141.644 Y82.411 E11.8371
G1 X142.563 Y82.464 E11.86771
G1 X143.474 Y82.597 E11.89833
G1 X144.37 Y82.808 E11.92895
G1 X145.244 Y83.096 E11.95956
G1 X146.09 Y83.459 E11.99018
G1 X146.902 Y83.894 E12.02082
G1 X147.672 Y84.398 E12.05142
G1 X148.396 Y84.967 E12.08205
G1 X149.068 Y85.596 E12.11267
G1 X149.683 Y86.282 E12.14331
G1 X150.236 Y87.018 E12.17393
G1 X150.723 Y87.799 E12.20454
G1 X151.14 Y88.62 E12.23517
G1 X151.485 Y89.474 E12.2658
G1 X151.754 Y90.354 E12.29641
G1 X151.962 Y91.356 E12.33044
G1 X152.351 Y93.82 E12.41341
G1 X152.82 Y96.339 E12.49863
G1 X153.346 Y98.772 E12.58143
G1 X153.957 Y101.259 E12.6666
G1 X154.627 Y103.686 E12.75035
G1 X155.367 Y106.101 E12.83436
G1 X156.174 Y108.489 E12.91819
G1 X157.054 Y110.873 E13.00271
G1 X157.997 Y113.217 E13.08675
G1 X159.011 Y115.547 E13.17127
G1 X160.086 Y117.836 E13.25538
G1 X161.214 Y120.072 E13.33867
G1 X162.421 Y122.308 E13.42319
G1 X163.673 Y124.475 E13.50643
G1 X165.093 Y126.778 E13.59641
G1 X165.435 Y127.317 E13.61765
G1 X165.894 Y128.115 E13.64826
G1 X166.283 Y128.949 E13.67887
G1 X166.598 Y129.814 E13.70949
G1 X166.837 Y130.703 E13.74011
G1 X166.998 Y131.61 E13.77075
G1 X167.085 Y132.679 E13.80642
G1 X167.095 Y133.004 E13.81723
G1 X167.1 Y133.33 E13.82808
G1 X167.099 Y141.395 E14.09632
G1 X167.09 Y142.122 E14.1205
G1 X167.039 Y143.041 E14.15112
G1 X166.908 Y143.953 E14.18176
G1 X166.698 Y144.849 E14.21237
G1 X166.412 Y145.724 E14.24299
G1 X166.051 Y146.571 E14.27361
G1 X165.617 Y147.383 E14.30423
G1 X165.115 Y148.155 E14.33486
G1 X164.547 Y148.88 E14.36549
G1 X163.919 Y149.553 E14.39611
G1 X163.235 Y150.169 E14.42673
G1 X162.5 Y150.723 E14.45734
G1 X161.72 Y151.212 E14.48796
G1 X160.9 Y151.631 E14.51859
G1 X160.047 Y151.977 E14.5492
G1 X159.167 Y152.248 E14.57983
G1 X158.267 Y152.441 E14.61044
G1 X157.353 Y152.556 E14.64108
G1 X156.788 Y152.587 E14.6599
G1 X156.467 Y152.596 E14.67058
G1 X156.17 Y152.6 E14.68046
G1 X79.07 Y152.599 E17.24482
G1 X78.372 Y152.59 E17.26804
G1 X77.453 Y152.538 E17.29865
G1 X76.542 Y152.407 E17.32926
G1 X75.646 Y152.197 E17.35987
G1 X74.771 Y151.91 E17.3905
G1 X73.924 Y151.548 E17.42114
G1 X73.112 Y151.114 E17.45176
G1 X72.341 Y150.612 E17.48236
G1 X71.616 Y150.044 E17.51299
G1 X70.943 Y149.415 E17.54363
G1 X70.328 Y148.731 E17.57422
G1 X69.774 Y147.996 E17.60484
G1 X69.286 Y147.215 E17.63547
G1 X68.867 Y146.395 E17.66609
G1 X68.521 Y145.542 E17.69671
G1 X68.251 Y144.662 E17.72733
G1 X68.058 Y143.761 E17.75797
G1 X67.944 Y142.848 E17.78857
G1 X67.913 Y142.277 E17.80759
G1 X67.904 Y141.944 E17.81867
G1 X67.9 Y141.658 E17.82819
G1 X67.901 Y133.556 E18.09766
G1 X67.911 Y132.852 E18.12108
G1 X67.964 Y131.933 E18.1517
G1 X68.097 Y131.022 E18.18232
G1 X68.308 Y130.126 E18.21293
G1 X68.596 Y129.252 E18.24354
G1 X68.959 Y128.406 E18.27416
G1 X69.477 Y127.456 E18.31015
G1 X69.866 Y126.826 E18.33477
G1 X70.664 Y125.57 E18.38427
G1 X71.959 Y123.398 E18.46837
G1 X73.186 Y121.199 E18.55213
G1 X74.371 Y118.927 E18.63736
G1 X75.469 Y116.67 E18.72084
G1 X76.51 Y114.363 E18.80502
G1 X77.495 Y112.015 E18.88971
G1 X78.399 Y109.661 E18.97357
G1 X79.238 Y107.284 E19.05741
G1 X80.011 Y104.881 E19.14137
G1 X80.712 Y102.47 E19.22488
G1 X81.361 Y99.978 E19.31053
G1 X81.927 Y97.526 E19.39423
G1 X82.418 Y95.071 E19.4775
G1 X82.856 Y92.516 E19.56372
G1 X83.033 Y91.387 E19.60173
G1 X83.198 Y90.554 E19.62997
G1 X83.45 Y89.668 E19.66061
G1 X83.778 Y88.808 E19.69122
G1 X84.179 Y87.979 E19.72185
G1 X84.651 Y87.189 E19.75246
G1 X85.189 Y86.442 E19.78308
G1 X85.791 Y85.745 E19.81371
G0 F6000 X86.153 Y85.944
G1 F1200 X86.807 Y85.321 E19.84375
G1 X87.513 Y84.758 E19.87379
G1 X88.266 Y84.26 E19.90381
G1 X89.061 Y83.831 E19.93386
G1 X89.89 Y83.473 E19.96389
G1 X90.748 Y83.19 E19.99394
G1 X91.627 Y82.984 E20.02397
G1 X92.521 Y82.857 E20.054
G1 X93.223 Y82.813 E20.0774
G1 X93.543 Y82.804 E20.08805
G1 X93.83 Y82.8 E20.09759
G1 X140.793 Y82.8 E21.65959
G1 X141.638 Y82.811 E21.6877
G1 X142.539 Y82.864 E21.71771
G1 X143.433 Y82.996 E21.74777
G1 X144.311 Y83.207 E21.77781
G1 X145.167 Y83.495 E21.80784
G1 X145.994 Y83.857 E21.83787
G1 X146.786 Y84.291 E21.86791
G1 X147.537 Y84.794 E21.89797
G1 X148.24 Y85.361 E21.92801
G1 X148.89 Y85.988 E21.95805
G1 X149.482 Y86.67 E21.98809
G1 X150.011 Y87.401 E22.0181
G1 X150.474 Y88.177 E22.04815
G1 X150.866 Y88.99 E22.07817
G1 X151.185 Y89.835 E22.10821
G1 X151.428 Y90.705 E22.13826
G1 X151.567 Y91.419 E22.16245
G1 X151.955 Y93.878 E22.24525
G1 X152.43 Y96.425 E22.33142
G1 X152.96 Y98.88 E22.41496
G1 X153.571 Y101.365 E22.50007
G1 X154.232 Y103.762 E22.58277
G1 X154.992 Y106.241 E22.66901
G1 X155.795 Y108.619 E22.75249
G1 X156.69 Y111.042 E22.8384
G1 X157.616 Y113.343 E22.9209
G1 X158.646 Y115.711 E23.00679
G1 X159.724 Y118.007 E23.09115
G1 X160.862 Y120.263 E23.17519
G1 X162.066 Y122.492 E23.25945
G1 X163.344 Y124.705 E23.34445
G1 X164.757 Y126.998 E23.43403
G1 X165.097 Y127.532 E23.45509
G1 X165.547 Y128.314 E23.4851
G1 X165.927 Y129.134 E23.51515
G1 X166.232 Y129.984 E23.54519
G1 X166.461 Y130.857 E23.57521
G1 X166.612 Y131.748 E23.60527
G1 X166.685 Y132.691 E23.63672
G1 X166.695 Y133.016 E23.64754
G1 X166.7 Y133.33 E23.65798
G1 X166.699 Y141.39 E23.92606
G1 X166.69 Y142.117 E23.95024
G1 X166.639 Y143.019 E23.98029
G1 X166.508 Y143.913 E24.01034
G1 X166.299 Y144.791 E24.04036
G1 X166.013 Y145.648 E24.07041
G1 X165.652 Y146.476 E24.10045
G1 X165.22 Y147.268 E24.13046
G1 X164.719 Y148.02 E24.16051
G1 X164.153 Y148.724 E24.19056
G1 X163.528 Y149.375 E24.22057
G1 X162.847 Y149.969 E24.25063
G1 X162.116 Y150.5 E24.28068
G1 X161.342 Y150.964 E24.3107
G1 X160.529 Y151.358 E24.34074
G1 X159.685 Y151.678 E24.37077
G1 X158.815 Y151.923 E24.40083
G1 X157.928 Y152.089 E24.43084
G1 X156.777 Y152.187 E24.46926
G1 X156.456 Y152.196 E24.47994
G1 X156.17 Y152.2 E24.48946
G1 X79.075 Y152.199 E27.05365
G1 X78.377 Y152.19 E27.07686
G1 X77.476 Y152.139 E27.10688
G1 X76.582 Y152.007 E27.13694
G1 X75.704 Y151.798 E27.16695
G1 X74.847 Y151.511 E27.19701
G1 X74.02 Y151.15 E27.22703
G1 X73.227 Y150.717 E27.25708
G1 X72.476 Y150.216 E27.2871
G1 X71.772 Y149.65 E27.31715
G1 X71.121 Y149.024 E27.34719
G1 X70.528 Y148.343 E27.37722
G1 X69.998 Y147.612 E27.40725
G1 X69.534 Y146.837 E27.4373
G1 X69.14 Y146.024 E27.46734
G1 X68.82 Y145.18 E27.49737
G1 X68.576 Y144.31 E27.52742
G1 X68.41 Y143.422 E27.55747
G1 X68.313 Y142.267 E27.59602
G1 X68.304 Y141.934 E27.6071
G1 X68.3 Y141.658 E27.61628
G1 X68.301 Y133.562 E27.88555
G1 X68.311 Y132.858 E27.90897
G1 X68.364 Y131.957 E27.93899
G1 X68.496 Y131.063 E27.96904
G1 X68.707 Y130.185 E27.99908
G1 X68.995 Y129.329 E28.02912
G1 X69.357 Y128.502 E28.05914
G1 X69.818 Y127.665 E28.09092
G1 X70.203 Y127.04 E28.11534
G1 X71.028 Y125.741 E28.16652
G1 X72.294 Y123.619 E28.24871
G1 X73.547 Y121.373 E28.33425
G1 X74.728 Y119.108 E28.41921
G1 X75.835 Y116.832 E28.50339
G1 X76.873 Y114.534 E28.58725
G1 X77.873 Y112.148 E28.6733
G1 X78.762 Y109.834 E28.75575
G1 X79.621 Y107.402 E28.84153
G1 X80.393 Y105 E28.92545
G1 X81.111 Y102.53 E29.011
G1 X81.744 Y100.097 E29.09462
G1 X82.315 Y97.623 E29.17907
G1 X82.817 Y95.117 E29.26407
G1 X83.242 Y92.637 E29.34776
G1 X83.428 Y91.449 E29.38776
G1 X83.587 Y90.646 E29.41498
G1 X83.835 Y89.778 E29.44501
G1 X84.159 Y88.935 E29.47505
G1 X84.556 Y88.124 E29.50508
G1 X85.023 Y87.351 E29.53512
G1 X85.557 Y86.622 E29.56517
G1 X86.153 Y85.944 E29.5952
G1 F1500 E23.0952
;MESH:Door holder left.stl
G0 F6000 X93.088 Y92.589
G0 X93.814 Y93.314
G0 X96.951 Y95
G0 X97.649 Y98.18
G0 X97.998 Y98.69
G0 X99.978 Y100.203
;TYPE:WALL-INNER
G1 F1500 E29.5952
G1 F1200 X100.408 Y100.056 E29.61031
G1 X100.891 Y99.777 E29.62886
G1 X101.31 Y99.405 E29.6475
G1 X101.649 Y98.96 E29.6661
G1 X101.888 Y98.453 E29.68475
G1 X102.026 Y97.916 E29.70319
G1 X102.051 Y97.358 E29.72177
G1 X101.968 Y96.793 E29.74076
G1 X101.721 Y96.167 E29.76314
G1 X101.396 Y95.695 E29.7822
G1 X101.001 Y95.306 E29.80064
G1 X100.529 Y95.002 E29.81932
G1 X100.011 Y94.798 E29.83783
G1 X100.01 Y94.798 E29.83786
G1 X99.496 Y94.707 E29.85523
G1 X99.216 Y94.697 E29.86455
G1 X98.753 Y94.739 E29.88001
G1 X98.546 Y94.797 E29.88716
G1 X98.229 Y94.888 E29.89813
G1 X97.727 Y95.142 E29.91684
G1 X97.289 Y95.494 E29.93553
G1 X96.931 Y95.922 E29.95409
G1 X96.662 Y96.414 E29.97274
G1 X96.5 Y96.949 E29.99133
G1 X96.444 Y97.502 E30.00982
G1 X96.5 Y98.06 E30.02847
G1 X96.668 Y98.594 E30.04709
G1 X96.933 Y99.085 E30.06565
G1 X97.294 Y99.511 E30.08422
G1 X97.727 Y99.858 E30.10267
G1 X98.232 Y100.113 E30.12149
G1 X98.546 Y100.203 E30.13235
G1 X98.762 Y100.264 E30.13982
G1 X99.323 Y100.306 E30.15853
G1 X99.879 Y100.236 E30.17717
G1 X99.978 Y100.203 E30.18064
G0 F6000 X99.789 Y99.844
G1 F1200 X100.242 Y99.69 E30.19655
G1 X100.656 Y99.451 E30.21245
G1 X101.015 Y99.132 E30.22843
G1 X101.305 Y98.751 E30.24435
G1 X101.51 Y98.317 E30.26032
G1 X101.628 Y97.857 E30.27611
G1 X101.65 Y97.378 E30.29206
G1 X101.579 Y96.897 E30.30823
G1 X101.366 Y96.356 E30.32757
G1 X101.088 Y95.953 E30.34385
G1 X100.75 Y95.62 E30.35963
G1 X100.346 Y95.36 E30.37561
G1 X99.901 Y95.185 E30.39152
G1 X99.454 Y95.106 E30.40661
G1 X99.227 Y95.098 E30.41417
G1 X98.826 Y95.134 E30.42756
G1 X98.375 Y95.262 E30.44315
G1 X97.945 Y95.48 E30.45919
G1 X97.57 Y95.781 E30.47518
G1 X97.263 Y96.148 E30.4911
G1 X97.033 Y96.569 E30.50705
G1 X96.894 Y97.028 E30.523
G1 X96.846 Y97.502 E30.53885
G1 X96.894 Y97.979 E30.55479
G1 X97.038 Y98.438 E30.57079
G1 X97.265 Y98.858 E30.58667
G1 X97.574 Y99.223 E30.60258
G1 X97.945 Y99.52 E30.61839
G1 X98.378 Y99.739 E30.63452
G1 X98.832 Y99.868 E30.65022
G1 X99.313 Y99.904 E30.66626
G1 X99.789 Y99.844 E30.68222
G0 F6000 X99.699 Y99.452
G1 F1200 X100.076 Y99.324 E30.69546
G1 X100.421 Y99.125 E30.70871
G1 X100.72 Y98.859 E30.72202
G1 X100.961 Y98.542 E30.73527
G1 X101.132 Y98.181 E30.74855
G1 X101.23 Y97.797 E30.76173
G1 X101.249 Y97.398 E30.77502
G1 X101.19 Y97.001 E30.78837
G1 X101.011 Y96.545 E30.80466
G1 X100.78 Y96.211 E30.81817
G1 X100.499 Y95.934 E30.83129
G1 X100.163 Y95.718 E30.84458
G1 X99.792 Y95.572 E30.85784
G1 X99.412 Y95.505 E30.87067
G1 X99.238 Y95.499 E30.87646
G1 X98.899 Y95.529 E30.88778
G1 X98.521 Y95.636 E30.90085
G1 X98.163 Y95.818 E30.91421
G1 X97.851 Y96.068 E30.9275
G1 X97.595 Y96.374 E30.94077
G1 X97.404 Y96.724 E30.95403
G1 X97.288 Y97.107 E30.96734
G1 X97.248 Y97.502 E30.98055
G1 X97.288 Y97.898 E30.99379
G1 X97.408 Y98.282 E31.00717
G1 X97.597 Y98.631 E31.02037
G1 X97.854 Y98.935 E31.03361
G1 X98.163 Y99.182 E31.04677
G1 X98.524 Y99.365 E31.06023
G1 X98.902 Y99.472 E31.07329
G1 X99.303 Y99.502 E31.08667
G1 X99.699 Y99.452 E31.09994
G0 F6000 X99.609 Y99.06
