;FLAVOR:Marlin
;TIME:1993
;Filament used: 1.39189m
;Layer height: 0.2
;MINX:99.5
;MINY:93.5
;MINZ:0.2
;MAXX:135.5
;MAXY:141.5
;MAXZ:23
;Generated with Cura_SteamEngine 4.11.0
M140 S70
M105
M190 S70
M104 S220
M105
M109 S220
M82 ;absolute extrusion mode
; Ender 3 Custom Start G-code
G92 E0 ; Reset Extruder
G28 ; Home all axes
G1 Z2.0 F3000 ; Move Z Axis up little to prevent scratching of Heat Bed
G1 X0.1 Y20 Z0.3 F5000.0 ; Move to start position
G1 X0.1 Y200.0 Z0.3 F1500.0 E15 ; Draw the first line
G1 X0.4 Y200.0 Z0.3 F5000.0 ; Move to side a little
G1 X0.4 Y20 Z0.3 F1500.0 E30 ; Draw the second line
G92 E0 ; Reset Extruder
G1 Z2.0 F3000 ; Move Z Axis up little to prevent scratching of Heat Bed
G1 X5 Y20 Z0.3 F5000.0 ; Move over to prevent blob squish
G92 E0
G92 E0
G1 F1500 E-6.5
;LAYER_COUNT:115
;LAYER:0
M107
G0 F6000 X103.91 Y104.893 Z0.2
;TYPE:SKIRT
G1 F1500 E0
G1 F1200 X104.183 Y104.627 E0.01268
G1 X104.333 Y104.486 E0.01952
G1 X104.774 Y104.093 E0.03917
G1 X104.921 Y103.969 E0.04557
G1 X105.375 Y103.606 E0.0649
G1 X106.586 Y102.69 E0.1154
G1 X106.994 Y102.388 E0.13229
G1 X108.978 Y100.831 E0.21617
G1 X110.941 Y99.2 E0.30105
G1 X112.794 Y97.569 E0.38316
G1 X113.313 Y97.087 E0.40672
G1 X114.127 Y96.351 E0.44322
G1 X114.848 Y95.752 E0.47439
G1 X115.619 Y95.217 E0.50561
G1 X116.432 Y94.749 E0.53681
G1 X117.282 Y94.353 E0.568
G1 X118.162 Y94.03 E0.59917
G1 X119.067 Y93.783 E0.63038
G1 X119.99 Y93.615 E0.66158
G1 X121.167 Y93.515 E0.70087
G1 X121.493 Y93.505 E0.71171
G1 X121.83 Y93.5 E0.72292
G1 X123.793 Y93.5 E0.78821
G1 X124.649 Y93.511 E0.81669
G1 X125.585 Y93.565 E0.84787
G1 X126.513 Y93.697 E0.87905
G1 X127.427 Y93.909 E0.91025
G1 X128.319 Y94.198 E0.94144
G1 X129.184 Y94.561 E0.97264
G1 X130.014 Y94.997 E1.00382
G1 X130.805 Y95.502 E1.03504
G1 X131.549 Y96.073 E1.06623
G1 X132.242 Y96.705 E1.09742
G1 X132.879 Y97.393 E1.12861
G1 X133.454 Y98.134 E1.15981
G1 X133.965 Y98.92 E1.19099
G1 X134.407 Y99.748 E1.2222
G1 X134.776 Y100.61 E1.25339
G1 X135.071 Y101.5 E1.28458
G1 X135.289 Y102.412 E1.31576
G1 X135.429 Y103.34 E1.34698
G1 X135.487 Y104.201 E1.37568
G1 X135.496 Y104.521 E1.38633
G1 X135.5 Y104.83 E1.39661
G1 X135.499 Y129.9 E2.23044
G1 X135.49 Y130.627 E2.25462
G1 X135.439 Y131.564 E2.28583
G1 X135.307 Y132.492 E2.31701
G1 X135.098 Y133.406 E2.34819
G1 X134.811 Y134.299 E2.37939
G1 X134.449 Y135.165 E2.41061
G1 X134.015 Y135.996 E2.44179
G1 X133.511 Y136.787 E2.47298
G1 X132.942 Y137.532 E2.50416
G1 X132.311 Y138.227 E2.53539
G1 X131.624 Y138.865 E2.56657
G1 X130.885 Y139.442 E2.59775
G1 X130.099 Y139.954 E2.62895
G1 X129.273 Y140.397 E2.66013
G1 X128.411 Y140.769 E2.69135
G1 X127.522 Y141.065 E2.72252
G1 X126.61 Y141.285 E2.75372
G1 X125.683 Y141.426 E2.78491
G1 X124.799 Y141.487 E2.81438
G1 X124.478 Y141.496 E2.82506
G1 X124.17 Y141.5 E2.8353
G1 X122.05 Y141.499 E2.90582
G1 X121.348 Y141.489 E2.92917
G1 X120.412 Y141.436 E2.96035
G1 X119.484 Y141.303 E2.99153
G1 X118.57 Y141.091 E3.02274
G1 X117.677 Y140.803 E3.05394
G1 X116.813 Y140.439 E3.08513
G1 X115.982 Y140.003 E3.11634
G1 X115.192 Y139.498 E3.14752
G1 X114.448 Y138.928 E3.1787
G1 X114.018 Y138.549 E3.19776
G1 X113.766 Y138.315 E3.2092
G1 X111.822 Y136.557 E3.29637
G1 X109.923 Y134.936 E3.37942
G1 X107.98 Y133.367 E3.46248
G1 X106.323 Y132.12 E3.53146
G1 X105.477 Y131.475 E3.56684
G1 X105.265 Y131.309 E3.5758
G1 X105.048 Y131.135 E3.58505
G1 X104.597 Y130.753 E3.6047
G1 X104.446 Y130.618 E3.61144
G1 X104.029 Y130.225 E3.6305
G1 X103.893 Y130.09 E3.63687
G1 X103.627 Y129.817 E3.64955
G1 X103.486 Y129.667 E3.6564
G1 X102.911 Y129.005 E3.68556
G1 X102.675 Y128.71 E3.69813
G1 X102.175 Y128.033 E3.72612
G1 X102.053 Y127.854 E3.73332
G1 X101.641 Y127.202 E3.75898
G1 X101.452 Y126.878 E3.77145
G1 X100.932 Y125.869 E3.80921
G1 X100.775 Y125.522 E3.82187
G1 X100.489 Y124.829 E3.84681
G1 X100.41 Y124.617 E3.85433
G1 X100.138 Y123.786 E3.88342
G1 X100.037 Y123.431 E3.89569
G1 X99.854 Y122.69 E3.92108
G1 X99.811 Y122.486 E3.92801
G1 X99.673 Y121.686 E3.95501
G1 X99.623 Y121.315 E3.96746
G1 X99.543 Y120.487 E3.99513
G1 X99.529 Y120.247 E4.00313
G1 X99.511 Y119.746 E4.0198
G1 X99.5 Y118.821 E4.05057
G1 X99.501 Y116 E4.1444
G1 X99.51 Y115.329 E4.16672
G1 X99.517 Y115.048 E4.17607
G1 X99.527 Y114.792 E4.18459
G1 X99.588 Y113.992 E4.21127
G1 X99.626 Y113.654 E4.22258
G1 X99.74 Y112.883 E4.24851
G1 X99.784 Y112.645 E4.25656
G1 X99.984 Y111.768 E4.28648
G1 X100.081 Y111.41 E4.29881
G1 X100.391 Y110.444 E4.33255
G1 X100.523 Y110.09 E4.34512
G1 X100.83 Y109.35 E4.37177
G1 X100.929 Y109.134 E4.37967
G1 X101.152 Y108.676 E4.39661
G1 X101.218 Y108.548 E4.4014
G1 X101.531 Y107.982 E4.42291
G1 X101.656 Y107.771 E4.43107
G1 X101.912 Y107.36 E4.44718
G1 X101.995 Y107.233 E4.45222
G1 X102.305 Y106.784 E4.47037
G1 X102.438 Y106.601 E4.47789
G1 X102.771 Y106.166 E4.49612
G1 X102.883 Y106.027 E4.50205
G1 X103.22 Y105.628 E4.51942
G1 X103.354 Y105.477 E4.52614
G1 X103.775 Y105.029 E4.54659
G1 X103.91 Y104.893 E4.55296
G0 F6000 X104.194 Y105.174
G1 F1200 X104.457 Y104.919 E4.56514
G1 X104.607 Y104.778 E4.57199
G1 X105.032 Y104.399 E4.59093
G1 X105.179 Y104.275 E4.59733
G1 X105.617 Y103.925 E4.61597
G1 X106.824 Y103.012 E4.66631
G1 X107.233 Y102.709 E4.68324
G1 X109.235 Y101.138 E4.76788
G1 X111.177 Y99.524 E4.85187
G1 X113.066 Y97.863 E4.93553
G1 X113.581 Y97.383 E4.95895
G1 X114.395 Y96.647 E4.99545
G1 X115.104 Y96.06 E5.02606
G1 X115.861 Y95.537 E5.05666
G1 X116.661 Y95.081 E5.08729
G1 X117.498 Y94.696 E5.11793
G1 X118.364 Y94.386 E5.14853
G1 X119.255 Y94.151 E5.17917
G1 X120.162 Y93.995 E5.20978
G1 X121.179 Y93.915 E5.24371
G1 X121.505 Y93.905 E5.25456
G1 X121.83 Y93.9 E5.26537
G1 X123.793 Y93.9 E5.33066
G1 X124.643 Y93.911 E5.35894
G1 X125.562 Y93.964 E5.38955
G1 X126.473 Y94.097 E5.42017
G1 X127.369 Y94.308 E5.45079
G1 X128.243 Y94.596 E5.4814
G1 X129.09 Y94.959 E5.51205
G1 X129.901 Y95.394 E5.54266
G1 X130.671 Y95.898 E5.57326
G1 X131.395 Y96.467 E5.60389
G1 X132.067 Y97.097 E5.63453
G1 X132.682 Y97.782 E5.66515
G1 X133.235 Y98.518 E5.69577
G1 X133.722 Y99.299 E5.72638
G1 X134.139 Y100.12 E5.757
G1 X134.484 Y100.974 E5.78764
G1 X134.753 Y101.854 E5.81825
G1 X134.945 Y102.755 E5.84889
G1 X135.058 Y103.668 E5.87948
G1 X135.087 Y104.212 E5.8976
G1 X135.096 Y104.532 E5.90825
G1 X135.1 Y104.83 E5.91816
G1 X135.099 Y129.895 E6.75183
G1 X135.09 Y130.622 E6.77601
G1 X135.039 Y131.541 E6.80662
G1 X134.908 Y132.453 E6.83727
G1 X134.698 Y133.349 E6.86788
G1 X134.412 Y134.224 E6.89849
G1 X134.051 Y135.071 E6.92912
G1 X133.617 Y135.883 E6.95974
G1 X133.115 Y136.655 E6.99037
G1 X132.547 Y137.38 E7.021
G1 X131.919 Y138.053 E7.05162
G1 X131.235 Y138.669 E7.08223
G1 X130.5 Y139.223 E7.11285
G1 X129.72 Y139.712 E7.14346
G1 X128.9 Y140.131 E7.17409
G1 X128.047 Y140.477 E7.20471
G1 X127.167 Y140.748 E7.23533
G1 X126.267 Y140.941 E7.26595
G1 X125.353 Y141.056 E7.29659
G1 X124.788 Y141.087 E7.31541
G1 X124.467 Y141.096 E7.32609
G1 X124.17 Y141.1 E7.33597
G1 X122.056 Y141.099 E7.40628
G1 X121.354 Y141.089 E7.42963
G1 X120.435 Y141.036 E7.46025
G1 X119.524 Y140.903 E7.49087
G1 X118.628 Y140.692 E7.52149
G1 X117.753 Y140.404 E7.55212
G1 X116.907 Y140.041 E7.58274
G1 X116.096 Y139.606 E7.61335
G1 X115.325 Y139.102 E7.64399
G1 X114.29 Y138.256 E7.68845
G1 X113.98 Y137.968 E7.70252
G1 X112.104 Y136.272 E7.78664
G1 X110.189 Y134.636 E7.87041
G1 X108.222 Y133.049 E7.95447
G1 X106.565 Y131.802 E8.02344
G1 X105.719 Y131.157 E8.05883
G1 X105.515 Y130.997 E8.06745
G1 X105.298 Y130.823 E8.0767
G1 X104.864 Y130.455 E8.09563
G1 X104.713 Y130.32 E8.10236
G1 X104.31 Y129.941 E8.12076
G1 X104.174 Y129.806 E8.12714
G1 X103.919 Y129.543 E8.13932
G1 X103.778 Y129.393 E8.14617
G1 X103.224 Y128.755 E8.17427
G1 X102.988 Y128.46 E8.18684
G1 X102.506 Y127.808 E8.21381
G1 X102.384 Y127.629 E8.22101
G1 X101.987 Y127 E8.24575
G1 X101.798 Y126.676 E8.25823
G1 X101.297 Y125.705 E8.29457
G1 X101.14 Y125.358 E8.30723
G1 X100.864 Y124.689 E8.3313
G1 X100.785 Y124.477 E8.33883
G1 X100.523 Y123.677 E8.36683
G1 X100.422 Y123.322 E8.3791
G1 X100.245 Y122.607 E8.4036
G1 X100.202 Y122.403 E8.41054
G1 X100.069 Y121.633 E8.43653
G1 X100.019 Y121.262 E8.44898
G1 X99.942 Y120.463 E8.47568
G1 X99.928 Y120.223 E8.48367
G1 X99.911 Y119.741 E8.49971
G1 X99.9 Y118.821 E8.53031
G1 X99.901 Y116.006 E8.62394
G1 X99.91 Y115.335 E8.64626
G1 X99.917 Y115.063 E8.65531
G1 X99.927 Y114.807 E8.66383
G1 X99.985 Y114.037 E8.68952
G1 X100.023 Y113.699 E8.70083
G1 X100.134 Y112.956 E8.72581
G1 X100.178 Y112.718 E8.73386
G1 X100.37 Y111.873 E8.76269
G1 X100.467 Y111.515 E8.77502
G1 X100.766 Y110.584 E8.80755
G1 X100.898 Y110.23 E8.82011
G1 X101.194 Y109.516 E8.84582
G1 X101.293 Y109.3 E8.85372
G1 X101.508 Y108.859 E8.87004
G1 X101.574 Y108.731 E8.87483
G1 X101.875 Y108.186 E8.89554
G1 X102 Y107.975 E8.90369
G1 X102.247 Y107.579 E8.91922
G1 X102.33 Y107.452 E8.92426
G1 X102.628 Y107.019 E8.94175
G1 X102.761 Y106.836 E8.94927
G1 X103.082 Y106.417 E8.96683
G1 X103.194 Y106.278 E8.97276
G1 X103.52 Y105.893 E8.98954
G1 X103.654 Y105.742 E8.99626
G1 X104.059 Y105.31 E9.01595
G1 X104.194 Y105.174 E9.02233
G0 F6000 X104.478 Y105.456
G1 F1200 X104.731 Y105.21 E9.03406
G1 X104.881 Y105.069 E9.04091
G1 X105.29 Y104.704 E9.05914
G1 X105.437 Y104.58 E9.06554
G1 X105.858 Y104.244 E9.08345
G1 X107.062 Y103.333 E9.13367
G1 X107.495 Y103.012 E9.1516
G1 X109.475 Y101.459 E9.23529
G1 X111.431 Y99.834 E9.31987
G1 X113.337 Y98.156 E9.40433
G1 X113.849 Y97.68 E9.42758
G1 X114.663 Y96.944 E9.46408
G1 X115.359 Y96.369 E9.49411
G1 X116.103 Y95.857 E9.52415
G1 X116.89 Y95.413 E9.5542
G1 X117.713 Y95.041 E9.58424
G1 X118.565 Y94.743 E9.61426
G1 X119.441 Y94.521 E9.64432
G1 X120.332 Y94.378 E9.67434
G1 X121.191 Y94.315 E9.70298
G1 X121.517 Y94.305 E9.71383
G1 X121.83 Y94.3 E9.72424
G1 X123.793 Y94.3 E9.78953
G1 X124.637 Y94.311 E9.81761
G1 X125.539 Y94.364 E9.84766
G1 X126.432 Y94.496 E9.87768
G1 X127.31 Y94.707 E9.90772
G1 X128.166 Y94.995 E9.93776
G1 X128.993 Y95.357 E9.96778
G1 X129.785 Y95.792 E9.99783
G1 X130.536 Y96.294 E10.02788
G1 X131.239 Y96.861 E10.05792
G1 X131.889 Y97.488 E10.08796
G1 X132.481 Y98.17 E10.11799
G1 X133.011 Y98.901 E10.14803
G1 X133.473 Y99.677 E10.17806
G1 X133.866 Y100.49 E10.2081
G1 X134.184 Y101.335 E10.23813
G1 X134.427 Y102.205 E10.26817
G1 X134.592 Y103.093 E10.29821
G1 X134.687 Y104.223 E10.33593
G1 X134.696 Y104.543 E10.34657
G1 X134.7 Y104.83 E10.35612
G1 X134.699 Y129.89 E11.18962
G1 X134.69 Y130.617 E11.2138
G1 X134.639 Y131.519 E11.24385
G1 X134.508 Y132.413 E11.2739
G1 X134.299 Y133.291 E11.30392
G1 X134.013 Y134.148 E11.33397
G1 X133.652 Y134.976 E11.36401
G1 X133.22 Y135.768 E11.39402
G1 X132.719 Y136.52 E11.42407
G1 X132.153 Y137.224 E11.45412
G1 X131.528 Y137.875 E11.48413
G1 X130.847 Y138.469 E11.51419
G1 X130.116 Y139 E11.54424
G1 X129.342 Y139.464 E11.57425
G1 X128.529 Y139.858 E11.6043
G1 X127.685 Y140.178 E11.63432
G1 X126.815 Y140.423 E11.66439
G1 X125.928 Y140.589 E11.6944
G1 X124.777 Y140.687 E11.73282
G1 X124.456 Y140.696 E11.7435
G1 X124.17 Y140.7 E11.75302
G1 X122.062 Y140.699 E11.82313
G1 X121.36 Y140.689 E11.84648
G1 X120.458 Y140.636 E11.87653
G1 X119.565 Y140.504 E11.90656
G1 X118.687 Y140.293 E11.93659
G1 X117.831 Y140.005 E11.96663
G1 X117.003 Y139.643 E11.99668
G1 X116.211 Y139.209 E12.02672
G1 X115.461 Y138.706 E12.05676
G1 X114.563 Y137.963 E12.09552
G1 X114.32 Y137.738 E12.10654
G1 X112.349 Y135.955 E12.19494
G1 X110.433 Y134.319 E12.27873
G1 X108.478 Y132.742 E12.36228
G1 X106.808 Y131.483 E12.43184
G1 X105.962 Y130.838 E12.46722
G1 X105.765 Y130.685 E12.47552
G1 X105.548 Y130.511 E12.48477
G1 X105.131 Y130.157 E12.50296
G1 X104.98 Y130.022 E12.5097
G1 X104.592 Y129.657 E12.52741
G1 X104.456 Y129.522 E12.53379
G1 X104.21 Y129.269 E12.54552
G1 X104.069 Y129.119 E12.55237
G1 X103.536 Y128.505 E12.57941
G1 X103.3 Y128.21 E12.59198
G1 X102.836 Y127.583 E12.61792
G1 X102.714 Y127.404 E12.62513
G1 X102.332 Y126.798 E12.64895
G1 X102.143 Y126.474 E12.66143
G1 X101.661 Y125.54 E12.69639
G1 X101.504 Y125.193 E12.70906
G1 X101.239 Y124.55 E12.73219
G1 X101.16 Y124.338 E12.73971
G1 X100.907 Y123.567 E12.7667
G1 X100.806 Y123.212 E12.77898
G1 X100.636 Y122.525 E12.80252
G1 X100.593 Y122.321 E12.80945
G1 X100.465 Y121.579 E12.83449
G1 X100.415 Y121.208 E12.84694
G1 X100.341 Y120.44 E12.87261
G1 X100.327 Y120.2 E12.8806
G1 X100.311 Y119.736 E12.89604
G1 X100.3 Y118.821 E12.92648
G1 X100.301 Y116.011 E13.01994
G1 X100.31 Y115.34 E13.04226
G1 X100.317 Y115.079 E13.05094
G1 X100.327 Y114.823 E13.05946
G1 X100.383 Y114.081 E13.08421
G1 X100.421 Y113.743 E13.09553
G1 X100.527 Y113.029 E13.11953
G1 X100.571 Y112.791 E13.12758
G1 X100.756 Y111.977 E13.15535
G1 X100.853 Y111.619 E13.16769
G1 X101.141 Y110.723 E13.19899
G1 X101.273 Y110.369 E13.21155
G1 X101.558 Y109.683 E13.23626
G1 X101.657 Y109.467 E13.24416
G1 X101.863 Y109.042 E13.25987
G1 X101.929 Y108.914 E13.26466
G1 X102.219 Y108.39 E13.28458
G1 X102.344 Y108.179 E13.29274
G1 X102.582 Y107.798 E13.30768
G1 X102.665 Y107.671 E13.31273
G1 X102.952 Y107.254 E13.32956
G1 X103.085 Y107.071 E13.33709
G1 X103.393 Y106.668 E13.35396
G1 X103.505 Y106.529 E13.35989
G1 X103.819 Y106.159 E13.37604
G1 X103.953 Y106.008 E13.38275
G1 X104.343 Y105.592 E13.40172
G1 X104.478 Y105.456 E13.40809
G1 F1500 E6.90809
;MESH:LED shell.stl(1)
G0 F6000 X111.156 Y112.251
G0 X111.959 Y112.978
G0 X112.484 Y119.702
G0 X112.555 Y120.074
G0 X112.707 Y120.443
G0 X112.936 Y120.788
G0 X113.216 Y121.067
G0 X113.552 Y121.291
G0 X114.234 Y121.494
G0 X122.7 Y121.7
;TYPE:WALL-INNER
G1 F1500 E13.40809
G1 F1200 X114.577 Y121.7 E13.67826
G1 X114.292 Y121.687 E13.68775
G1 X113.863 Y121.603 E13.70229
G1 X113.471 Y121.442 E13.71638
G1 X113.107 Y121.2 E13.73092
G1 X112.803 Y120.897 E13.7452
G1 X112.556 Y120.524 E13.76008
G1 X112.391 Y120.124 E13.77447
G1 X112.314 Y119.719 E13.78818
G1 X112.3 Y119.423 E13.79804
G1 X112.3 Y115.577 E13.92596
G1 X112.313 Y115.272 E13.93611
G1 X112.393 Y114.872 E13.94968
G1 X112.556 Y114.476 E13.96392
G1 X112.803 Y114.103 E13.9788
G1 X113.107 Y113.8 E13.99308
G1 X113.467 Y113.56 E14.00747
G1 X113.875 Y113.392 E14.02214
G1 X114.286 Y113.314 E14.03606
G1 X114.581 Y113.3 E14.04588
G1 X122.7 Y113.3 E14.31592
G1 X122.7 Y121.7 E14.5953
G0 F6000 X122.9 Y129.1
G1 F1200 X122.9 Y122.1 E14.82812
G1 X114.559 Y122.1 E15.10555
G1 X114.252 Y122.086 E15.11577
G1 X113.973 Y122.044 E15.12515
G1 X113.751 Y121.988 E15.13277
G1 X113.508 Y121.902 E15.14134
G1 X113.276 Y121.792 E15.14988
G1 X113.058 Y121.661 E15.15834
G1 X112.85 Y121.507 E15.16695
G1 X112.66 Y121.335 E15.17547
G1 X112.494 Y121.152 E15.18369
G1 X112.341 Y120.944 E15.19228
G1 X112.204 Y120.716 E15.20112
G1 X112.099 Y120.496 E15.20923
G1 X112.009 Y120.243 E15.21816
G1 X112.004 Y120.22 E15.21895
G1 X111.954 Y120.02 E15.2258
G1 X111.915 Y119.756 E15.23468
G1 X111.9 Y119.442 E15.24513
G1 X111.9 Y115.559 E15.37428
G1 X111.914 Y115.241 E15.38487
G1 X111.953 Y114.984 E15.39352
G1 X112.009 Y114.759 E15.40123
G1 X112.099 Y114.504 E15.41022
G1 X112.204 Y114.284 E15.41833
G1 X112.341 Y114.056 E15.42718
G1 X112.494 Y113.848 E15.43577
G1 X112.66 Y113.665 E15.44398
G1 X112.85 Y113.493 E15.45251
G1 X113.058 Y113.339 E15.46111
G1 X113.276 Y113.208 E15.46957
G1 X113.505 Y113.099 E15.47801
G1 X113.756 Y113.01 E15.48687
G1 X113.778 Y113.005 E15.48762
G1 X113.974 Y112.956 E15.49434
G1 X114.247 Y112.915 E15.50352
G1 X114.562 Y112.9 E15.51401
G1 X122.9 Y112.9 E15.79133
G1 X122.9 Y105.9 E16.02415
G1 X123.1 Y105.9 E16.0308
G1 X123.1 Y112.9 E16.14751
G1 X123.1 Y122.1 E16.4535
G1 X123.1 Y129.1 E16.5702
G1 X122.9 Y129.1 E16.57685
G0 F6000 X122.5 Y129.5
G1 F1200 X122.5 Y122.5 E16.80967
G1 X114.541 Y122.5 E17.07439
G1 X114.212 Y122.485 E17.08535
G1 X113.9 Y122.438 E17.09584
G1 X113.637 Y122.372 E17.10486
G1 X113.354 Y122.272 E17.11484
G1 X113.09 Y122.146 E17.12457
G1 X112.836 Y121.994 E17.13442
G1 X112.593 Y121.814 E17.14447
G1 X112.377 Y121.618 E17.15418
G1 X112.185 Y121.407 E17.16366
G1 X112.006 Y121.164 E17.1737
G1 X111.854 Y120.911 E17.18352
G1 X111.739 Y120.667 E17.19249
G1 X111.727 Y120.643 E17.19338
G1 X111.627 Y120.362 E17.2033
G1 X111.622 Y120.339 E17.20409
