;FLAVOR:Marlin
;TIME:10136
;Filament used: 6.75252m
;Layer height: 0.2
;MINX:55
;MINY:86.246
;MINZ:0.2
;MAXX:180.623
;MAXY:148.754
;MAXZ:13
;TARGET_MACHINE.NAME:Creality Ender-3
;Generated with Cura_SteamEngine 5.6.0
M140 S50
M105
M190 S50
M104 S200
M105
M109 S200
M82 ;absolute extrusion mode
; Ender 3 Custom Start G-code
G92 E0 ; Reset Extruder
G28 ; Home all axes
G1 Z2.0 F3000 ; Move Z Axis up little to prevent scratching of Heat Bed
G1 X0.1 Y20 Z0.3 F5000.0 ; Move to start position
G1 X0.1 Y200.0 Z0.3 F1500.0 E15 ; Draw the first line
G1 X0.4 Y200.0 Z0.3 F5000.0 ; Move to side a little
G1 X0.4 Y20 Z0.3 F1500.0 E30 ; Draw the second line
G92 E0 ; Reset Extruder
G1 Z2.0 F3000 ; Move Z Axis up little to prevent scratching of Heat Bed
G1 X5 Y20 Z0.3 F5000.0 ; Move over to prevent blob squish
G92 E0
G92 E0
G1 F2700 E-5
;LAYER_COUNT:65
;LAYER:0
M107
G0 F6000 X59.979 Y92.811 Z0.2
;TYPE:SKIRT
G1 F2700 E0
G1 F1200 X60.816 Y92.313 E0.03239
G1 X61.694 Y91.892 E0.06478
G1 X62.607 Y91.55 E0.09721
G1 X63.545 Y91.29 E0.12958
G1 X64.511 Y91.112 E0.16225
G1 X65.655 Y91.015 E0.20044
G1 X66.312 Y91 E0.22229
G1 X91.926 Y91 E1.07422
G1 X94.51 Y90.963 E1.16017
G1 X97.075 Y90.854 E1.24556
G1 X99.554 Y90.678 E1.32822
G1 X102.055 Y90.431 E1.41181
G1 X104.563 Y90.11 E1.49591
G1 X107.046 Y89.72 E1.5795
G1 X109.486 Y89.266 E1.66205
G1 X111.981 Y88.729 E1.74694
G1 X114.405 Y88.137 E1.82993
G1 X117.447 Y87.288 E1.93497
G1 X119.053 Y86.81 E1.9907
G1 X119.789 Y86.61 E2.01607
G1 X120.741 Y86.405 E2.04846
G1 X121.707 Y86.285 E2.08084
G1 X122.687 Y86.25 E2.11345
G1 X125.523 Y86.278 E2.20778
G1 X126.804 Y86.254 E2.2504
G1 X127.622 Y86.25 E2.2776
G1 X130.891 Y86.285 E2.38634
G1 X133.099 Y86.251 E2.45978
G1 X136.29 Y86.282 E2.56592
G1 X137.853 Y86.253 E2.61792
G1 X139.433 Y86.246 E2.67047
G1 X140.724 Y86.257 E2.71341
G1 X142.096 Y86.25 E2.75904
G1 X142.825 Y86.272 E2.7833
G1 X145.181 Y86.42 E2.86182
G1 X147.704 Y86.514 E2.94579
G1 X150.334 Y86.538 E3.03327
G1 X151.516 Y86.532 E3.07258
G1 X152.731 Y86.556 E3.113
G1 X155.455 Y86.579 E3.2036
G1 X157.42 Y86.568 E3.26896
G1 X159.314 Y86.586 E3.33196
G1 X162.027 Y86.534 E3.42221
G1 X162.643 Y86.54 E3.4427
G1 X165.658 Y86.657 E3.54305
G1 X167.11 Y86.67 E3.59135
G1 X167.876 Y86.689 E3.61683
G1 X168.848 Y86.759 E3.64925
G1 X169.8 Y86.913 E3.68132
G1 X170.436 Y87.065 E3.70307
G1 X171.356 Y87.314 E3.73477
G1 X172.283 Y87.612 E3.76716
G1 X173.182 Y87.991 E3.79961
G1 X174.041 Y88.449 E3.83198
G1 X174.856 Y88.98 E3.86434
G1 X175.623 Y89.581 E3.89675
G1 X176.337 Y90.251 E3.92931
G1 X176.897 Y90.833 E3.95618
G1 X177.198 Y91.162 E3.97101
G1 X177.82 Y91.91 E4.00336
G1 X178.375 Y92.71 E4.03575
G1 X178.857 Y93.557 E4.06816
G1 X179.261 Y94.438 E4.1004
G1 X179.548 Y95.232 E4.12848
G1 X179.761 Y95.924 E4.15256
G1 X179.912 Y96.466 E4.17127
G1 X180.127 Y97.415 E4.20364
G1 X180.258 Y98.379 E4.23599
G1 X180.306 Y99.351 E4.26836
G1 X180.271 Y100.254 E4.29842
G1 X180.176 Y101.068 E4.32568
G1 X180.043 Y101.925 E4.35452
G1 X179.858 Y103.019 E4.39143
G1 X179.513 Y105.488 E4.47434
G1 X179.231 Y108.018 E4.55901
G1 X179.021 Y110.52 E4.64252
G1 X178.886 Y113.037 E4.72636
G1 X178.819 Y115.542 E4.8097
G1 X178.825 Y118.06 E4.89345
G1 X178.901 Y120.566 E4.97684
G1 X179.048 Y123.102 E5.06133
G1 X179.263 Y125.567 E5.14363
G1 X179.555 Y128.092 E5.22817
G1 X179.91 Y130.555 E5.31094
G1 X180.465 Y133.728 E5.41807
G1 X180.587 Y134.695 E5.45049
G1 X180.623 Y135.666 E5.48281
G1 X180.579 Y136.568 E5.51284
G1 X180.434 Y137.608 E5.54777
G1 X180.192 Y138.635 E5.58286
G1 X179.945 Y139.492 E5.61253
G1 X179.643 Y140.381 E5.64375
G1 X179.236 Y141.303 E5.67728
G1 X178.765 Y142.155 E5.70965
G1 X178.22 Y142.962 E5.74204
G1 X177.635 Y143.685 E5.77298
G1 X177.288 Y144.062 E5.79002
G1 X176.696 Y144.667 E5.81817
G1 X176.416 Y144.938 E5.83113
G1 X175.741 Y145.538 E5.86117
G1 X174.901 Y146.16 E5.89593
G1 X174.069 Y146.667 E5.92834
G1 X173.221 Y147.086 E5.9598
G1 X171.886 Y147.577 E6.00711
G1 X171.084 Y147.81 E6.03489
G1 X170.685 Y147.914 E6.0486
G1 X169.733 Y148.117 E6.08098
G1 X168.767 Y148.236 E6.11335
G1 X167.797 Y148.269 E6.14563
G1 X166.967 Y148.229 E6.17327
G1 X165.312 Y148.086 E6.22852
G1 X162.804 Y147.917 E6.31212
G1 X160.212 Y147.818 E6.3984
G1 X157.732 Y147.792 E6.48089
G1 X157.153 Y147.794 E6.50014
G1 X154.923 Y147.772 E6.57432
G1 X152.419 Y147.817 E6.65761
G1 X149.889 Y147.934 E6.74185
G1 X147.349 Y148.125 E6.82657
G1 X144.87 Y148.38 E6.90946
G1 X142.65 Y148.666 E6.98391
G1 X141.75 Y148.742 E7.01395
G1 X141.141 Y148.751 E7.03421
G1 X138.05 Y148.713 E7.13702
G1 X135.756 Y148.751 E7.21333
G1 X132.612 Y148.723 E7.3179
G1 X130.582 Y148.751 E7.38543
G1 X127.452 Y148.719 E7.48954
G1 X125.643 Y148.75 E7.54971
G1 X124.595 Y148.754 E7.58457
G1 X122.801 Y148.736 E7.64424
G1 X122.062 Y148.749 E7.66883
G1 X121.06 Y148.752 E7.70215
G1 X120.085 Y148.709 E7.73461
G1 X119.157 Y148.586 E7.76575
G1 X118.287 Y148.397 E7.79536
G1 X117.525 Y148.187 E7.82165
G1 X116.844 Y147.978 E7.84534
G1 X114.348 Y147.245 E7.93186
G1 X111.922 Y146.609 E8.01528
G1 X109.45 Y146.034 E8.09969
G1 X107.009 Y145.538 E8.18254
G1 X104.533 Y145.108 E8.26613
G1 X102.017 Y144.744 E8.35068
G1 X99.516 Y144.454 E8.43442
G1 X97.038 Y144.237 E8.51715
G1 X94.536 Y144.091 E8.60051
G1 X91.982 Y144.012 E8.6855
G1 X90.452 Y144 E8.73639
G1 X66.533 Y143.999 E9.53194
G1 X65.8 Y143.986 E9.55632
G1 X64.828 Y143.925 E9.58871
G1 X63.865 Y143.778 E9.62111
G1 X62.919 Y143.546 E9.65351
G1 X61.997 Y143.231 E9.68592
G1 X61.108 Y142.837 E9.71826
G1 X60.285 Y142.383 E9.74952
G1 X59.45 Y141.818 E9.78305
G1 X58.693 Y141.203 E9.81549
G1 X57.996 Y140.524 E9.84786
G1 X57.361 Y139.786 E9.88024
G1 X56.812 Y139.024 E9.91148
G1 X56.298 Y138.155 E9.94506
G1 X55.907 Y137.341 E9.97509
G1 X55.54 Y136.363 E10.00984
G1 X55.291 Y135.459 E10.04102
G1 X55.108 Y134.458 E10.07487
G1 X55.014 Y133.308 E10.11324
G1 X55 Y132.658 E10.13487
G1 X55.001 Y102.554 E11.13613
G1 X55.012 Y101.83 E11.16021
G1 X55.07 Y100.857 E11.19263
G1 X55.215 Y99.894 E11.22502
G1 X55.435 Y98.981 E11.25626
G1 X55.756 Y98.025 E11.2898
G1 X56.149 Y97.134 E11.32219
G1 X56.6 Y96.312 E11.35338
G1 X57.161 Y95.473 E11.38694
G1 X57.727 Y94.769 E11.41699
G1 X58.453 Y94.016 E11.45178
G1 X59.19 Y93.379 E11.48418
G1 X59.979 Y92.811 E11.51651
G0 F6000 X60.184 Y93.154
G1 F1200 X60.99 Y92.673 E11.54773
G1 X61.835 Y92.266 E11.57893
G1 X62.714 Y91.935 E11.61017
G1 X63.618 Y91.683 E11.64138
G1 X64.545 Y91.511 E11.67274
G1 X65.689 Y91.414 E11.71092
G1 X66.321 Y91.4 E11.73195
G1 X91.932 Y91.4 E12.58378
G1 X94.527 Y91.363 E12.67009
G1 X97.092 Y91.254 E12.75548
G1 X99.585 Y91.077 E12.83861
G1 X102.106 Y90.828 E12.92287
G1 X104.614 Y90.507 E13.00696
G1 X107.108 Y90.115 E13.09093
G1 X109.572 Y89.657 E13.17429
G1 X112.076 Y89.118 E13.25948
G1 X114.5 Y88.525 E13.34248
G1 X117.554 Y87.673 E13.44794
G1 X119.158 Y87.196 E13.50359
G1 X119.874 Y87.001 E13.52828
G1 X120.791 Y86.802 E13.55948
G1 X121.722 Y86.685 E13.59069
G1 X122.683 Y86.65 E13.62268
G1 X125.527 Y86.678 E13.71727
G1 X126.806 Y86.654 E13.75982
G1 X127.618 Y86.65 E13.78683
G1 X130.893 Y86.685 E13.89576
G1 X133.095 Y86.651 E13.96901
G1 X136.293 Y86.682 E14.07538
G1 X137.855 Y86.653 E14.12734
G1 X139.43 Y86.646 E14.17973
G1 X140.723 Y86.657 E14.22273
G1 X142.084 Y86.65 E14.268
G1 X142.8 Y86.671 E14.29183
G1 X145.166 Y86.82 E14.37068
G1 X147.689 Y86.914 E14.45465
G1 X150.332 Y86.938 E14.54256
G1 X151.508 Y86.932 E14.58167
G1 X152.723 Y86.956 E14.62209
G1 X155.454 Y86.979 E14.71293
G1 X157.416 Y86.968 E14.77819
G1 X159.318 Y86.986 E14.84145
G1 X162.023 Y86.934 E14.93144
G1 X162.627 Y86.94 E14.95153
G1 X165.642 Y87.057 E15.05188
G1 X167.1 Y87.07 E15.10038
G1 X167.848 Y87.088 E15.12526
G1 X168.785 Y87.154 E15.1565
G1 X169.707 Y87.302 E15.18756
G1 X170.332 Y87.451 E15.20893
G1 X171.234 Y87.695 E15.24001
G1 X172.128 Y87.981 E15.27123
G1 X172.994 Y88.344 E15.30246
G1 X173.823 Y88.784 E15.33368
G1 X174.61 Y89.295 E15.36489
G1 X175.349 Y89.873 E15.39609
G1 X176.049 Y90.529 E15.428
G1 X176.602 Y91.103 E15.45451
G1 X176.891 Y91.418 E15.46873
G1 X177.492 Y92.138 E15.49992
G1 X178.028 Y92.909 E15.53115
G1 X178.494 Y93.724 E15.56238
G1 X178.885 Y94.574 E15.5935
G1 X179.166 Y95.35 E15.62095
G1 X179.376 Y96.032 E15.64468
G1 X179.522 Y96.555 E15.66274
G1 X179.731 Y97.47 E15.69396
G1 X179.859 Y98.399 E15.72515
G1 X179.906 Y99.336 E15.75635
G1 X179.871 Y100.239 E15.78641
G1 X179.781 Y101.007 E15.81213
G1 X179.649 Y101.858 E15.84077
G1 X179.464 Y102.952 E15.87767
G1 X179.115 Y105.444 E15.96137
G1 X178.833 Y107.974 E16.04604
G1 X178.623 Y110.487 E16.12991
G1 X178.486 Y113.026 E16.21448
G1 X178.419 Y115.531 E16.29783
G1 X178.425 Y118.072 E16.38234
G1 X178.501 Y120.578 E16.46573
G1 X178.65 Y123.137 E16.55099
G1 X178.866 Y125.613 E16.63365
G1 X179.159 Y128.149 E16.71856
G1 X179.516 Y130.624 E16.80173
G1 X180.068 Y133.779 E16.90826
G1 X180.187 Y134.71 E16.93948
G1 X180.223 Y135.647 E16.97066
G1 X180.179 Y136.549 E17.0007
G1 X180.045 Y137.516 E17.03317
G1 X179.808 Y138.524 E17.06761
G1 X179.566 Y139.363 E17.09665
G1 X179.264 Y140.252 E17.12788
G1 X178.886 Y141.11 E17.15907
G1 X178.433 Y141.932 E17.19028
G1 X177.909 Y142.71 E17.22148
G1 X177.324 Y143.433 E17.25241
G1 X177.002 Y143.782 E17.26821
G1 X176.417 Y144.38 E17.29603
G1 X176.15 Y144.639 E17.3084
G1 X175.475 Y145.239 E17.33844
G1 X174.693 Y145.819 E17.37082
G1 X173.892 Y146.308 E17.40204
G1 X173.044 Y146.727 E17.4335
G1 X171.775 Y147.193 E17.47846
G1 X170.982 Y147.423 E17.50592
G1 X170.601 Y147.523 E17.51902
G1 X169.684 Y147.72 E17.55022
G1 X168.753 Y147.836 E17.58142
G1 X167.816 Y147.869 E17.61261
G1 X167.001 Y147.83 E17.63975
G1 X165.346 Y147.687 E17.695
G1 X162.819 Y147.517 E17.77923
G1 X160.227 Y147.418 E17.86551
G1 X157.735 Y147.392 E17.9484
G1 X157.157 Y147.394 E17.96762
G1 X154.92 Y147.372 E18.04203
G1 X152.401 Y147.417 E18.12582
G1 X149.871 Y147.534 E18.21006
G1 X147.314 Y147.726 E18.29535
G1 X144.819 Y147.983 E18.37877
G1 X142.616 Y148.267 E18.45265
G1 X141.716 Y148.343 E18.48269
G1 X141.146 Y148.351 E18.50165
G1 X138.048 Y148.313 E18.6047
G1 X135.76 Y148.351 E18.68081
G1 X132.61 Y148.323 E18.78558
G1 X130.586 Y148.351 E18.8529
G1 X127.449 Y148.319 E18.95725
G1 X125.641 Y148.35 E19.01739
G1 X124.599 Y148.354 E19.05205
G1 X122.798 Y148.336 E19.11195
G1 X122.061 Y148.349 E19.13647
G1 X121.077 Y148.352 E19.1692
G1 X120.138 Y148.312 E19.20046
G1 X119.21 Y148.189 E19.23159
G1 X118.393 Y148.011 E19.2594
G1 X117.643 Y147.805 E19.28527
G1 X116.957 Y147.594 E19.30914
G1 X114.461 Y146.861 E19.39567
G1 X112.013 Y146.219 E19.47984
G1 X109.541 Y145.644 E19.56425
G1 X107.089 Y145.146 E19.64747
G1 X104.59 Y144.712 E19.73183
G1 X102.074 Y144.348 E19.81639
G1 X99.562 Y144.057 E19.9005
G1 X97.063 Y143.838 E19.98393
G1 X94.548 Y143.691 E20.06772
G1 X91.994 Y143.612 E20.15271
G1 X90.455 Y143.6 E20.2039
G1 X66.54 Y143.599 E20.99932
G1 X65.824 Y143.587 E21.02313
G1 X64.888 Y143.53 E21.05432
G1 X63.96 Y143.389 E21.08554
G1 X63.048 Y143.167 E21.11676
G1 X62.159 Y142.865 E21.14799
G1 X61.301 Y142.486 E21.17919
G1 X60.509 Y142.051 E21.20924
G1 X59.702 Y141.507 E21.24161
G1 X58.972 Y140.916 E21.27285
G1 X58.299 Y140.263 E21.30404
G1 X57.686 Y139.552 E21.33526
G1 X57.137 Y138.79 E21.3665
G1 X56.659 Y137.982 E21.39772
G1 X56.268 Y137.168 E21.42776
G1 X55.926 Y136.257 E21.46012
G1 X55.677 Y135.353 E21.49131
G1 X55.507 Y134.425 E21.52269
G1 X55.413 Y133.275 E21.56107
G1 X55.4 Y132.658 E21.58159
G1 X55.401 Y102.56 E22.58266
G1 X55.411 Y101.853 E22.60617
G1 X55.466 Y100.916 E22.63739
G1 X55.604 Y99.988 E22.6686
G1 X55.824 Y99.075 E22.69983
G1 X56.122 Y98.186 E22.73102
G1 X56.5 Y97.326 E22.76226
G1 X56.951 Y96.504 E22.79345
G1 X57.473 Y95.724 E22.82466
G1 X58.039 Y95.02 E22.85471
G1 X58.715 Y94.318 E22.88712
G1 X59.424 Y93.703 E22.91834
G1 X60.184 Y93.154 E22.94952
G0 F6000 X60.39 Y93.497
G1 F1200 X61.164 Y93.033 E22.97954
G1 X61.977 Y92.64 E23.00957
G1 X62.822 Y92.32 E23.03962
G1 X63.692 Y92.076 E23.06968
G1 X64.579 Y91.91 E23.09969
G1 X65.723 Y91.813 E23.13788
G1 X66.33 Y91.8 E23.15807
G1 X91.938 Y91.8 E24.0098
G1 X94.544 Y91.763 E24.09648
G1 X97.109 Y91.654 E24.18187
G1 X99.616 Y91.476 E24.26546
G1 X102.157 Y91.225 E24.35039
G1 X104.665 Y90.904 E24.43448
G1 X107.17 Y90.51 E24.51883
G1 X109.657 Y90.048 E24.60296
G1 X112.171 Y89.507 E24.68849
G1 X114.595 Y88.913 E24.7715
G1 X117.661 Y88.058 E24.87736
G1 X119.263 Y87.582 E24.93295
G1 X119.959 Y87.392 E24.95694
G1 X120.842 Y87.199 E24.98701
G1 X121.737 Y87.085 E25.01701
G1 X122.679 Y87.05 E25.04837
G1 X125.531 Y87.078 E25.14323
G1 X126.808 Y87.054 E25.18571
G1 X127.614 Y87.05 E25.21252
G1 X130.895 Y87.085 E25.32165
G1 X133.091 Y87.051 E25.3947
G1 X136.296 Y87.082 E25.5013
G1 X137.857 Y87.053 E25.55323
G1 X139.427 Y87.046 E25.60545
G1 X140.722 Y87.057 E25.64852
G1 X142.073 Y87.05 E25.69346
G1 X142.775 Y87.07 E25.71682
G1 X145.151 Y87.22 E25.796
G1 X147.674 Y87.314 E25.87997
G1 X150.33 Y87.338 E25.96832
G1 X151.5 Y87.332 E26.00723
G1 X152.715 Y87.356 E26.04765
G1 X155.453 Y87.379 E26.13872
G1 X157.412 Y87.368 E26.20388
G1 X159.322 Y87.386 E26.26741
G1 X162.019 Y87.334 E26.35713
G1 X162.611 Y87.34 E26.37682
G1 X165.626 Y87.457 E26.47717
G1 X167.091 Y87.47 E26.5259
G1 X167.821 Y87.487 E26.55019
G1 X168.722 Y87.549 E26.58022
G1 X169.614 Y87.691 E26.61027
G1 X170.228 Y87.837 E26.63126
G1 X171.113 Y88.076 E26.66175
G1 X171.974 Y88.35 E26.6918
G1 X172.807 Y88.698 E26.72182
G1 X173.606 Y89.12 E26.75188
G1 X174.364 Y89.61 E26.7819
G1 X175.076 Y90.165 E26.81192
G1 X175.761 Y90.806 E26.84313
G1 X176.307 Y91.373 E26.86931
G1 X176.584 Y91.675 E26.88294
G1 X177.164 Y92.367 E26.91297
G1 X177.681 Y93.108 E26.94302
G1 X178.131 Y93.891 E26.97306
G1 X178.509 Y94.711 E27.00309
G1 X178.784 Y95.468 E27.02988
G1 X178.991 Y96.139 E27.05323
G1 X179.132 Y96.645 E27.0707
G1 X179.335 Y97.525 E27.10074
G1 X179.46 Y98.419 E27.13076
G1 X179.506 Y99.321 E27.1608
G1 X179.471 Y100.224 E27.19086
G1 X179.386 Y100.946 E27.21504
G1 X179.255 Y101.791 E27.24348
G1 X179.07 Y102.885 E27.28038
G1 X178.717 Y105.4 E27.36485
G1 X178.435 Y107.93 E27.44952
G1 X178.225 Y110.454 E27.53376
G1 X178.086 Y113.015 E27.61907
G1 X178.019 Y115.52 E27.70241
G1 X178.025 Y118.084 E27.78769
G1 X178.101 Y120.59 E27.87108
G1 X178.252 Y123.172 E27.9571
G1 X178.469 Y125.659 E28.04014
G1 X178.763 Y128.206 E28.12541
G1 X179.122 Y130.693 E28.20899
G1 X179.671 Y133.83 E28.31491
G1 X179.787 Y134.726 E28.34496
G1 X179.823 Y135.628 E28.37498
G1 X179.779 Y136.53 E28.40502
G1 X179.656 Y137.425 E28.43507
G1 X179.424 Y138.413 E28.46882
G1 X179.187 Y139.235 E28.49728
G1 X178.898 Y140.091 E28.52733
G1 X178.535 Y140.918 E28.55737
G1 X178.101 Y141.709 E28.58737
G1 X177.598 Y142.459 E28.61741
G1 X177.03 Y143.162 E28.64747
G1 X176.716 Y143.502 E28.66286
G1 X176.138 Y144.093 E28.69036
G1 X175.884 Y144.34 E28.70214
G1 X175.209 Y144.94 E28.73218
G1 X174.484 Y145.478 E28.76221
G1 X173.714 Y145.95 E28.79225
G1 X172.906 Y146.352 E28.82226
G1 X171.664 Y146.809 E28.86628
G1 X170.88 Y147.036 E28.89343
G1 X170.516 Y147.132 E28.90595
G1 X169.634 Y147.323 E28.93596
G1 X168.738 Y147.436 E28.966
G1 X167.835 Y147.469 E28.99605
G1 X167.035 Y147.431 E29.02269
G1 X165.38 Y147.288 E29.07794
G1 X162.834 Y147.117 E29.16281
G1 X160.242 Y147.018 E29.24909
G1 X157.738 Y146.992 E29.33238
G1 X157.161 Y146.994 E29.35157
G1 X154.917 Y146.972 E29.42621
G1 X152.383 Y147.017 E29.5105
G1 X149.853 Y147.134 E29.59474
G1 X147.279 Y147.327 E29.68059
G1 X144.768 Y147.586 E29.76455
G1 X142.582 Y147.868 E29.83786
G1 X141.682 Y147.944 E29.8679
G1 X141.151 Y147.951 E29.88556
G1 X138.046 Y147.913 E29.98884
G1 X135.764 Y147.951 E30.06475
G1 X132.608 Y147.923 E30.16973
G1 X130.59 Y147.951 E30.23685
G1 X127.446 Y147.919 E30.34143
G1 X125.639 Y147.95 E30.40154
G1 X124.603 Y147.954 E30.43599
G1 X122.795 Y147.936 E30.49613
G1 X122.06 Y147.949 E30.52058
G1 X121.093 Y147.952 E30.55274
G1 X120.19 Y147.915 E30.5828
G1 X119.295 Y147.798 E30.61282
G1 X118.499 Y147.625 E30.63992
G1 X117.761 Y147.423 E30.66537
G1 X117.07 Y147.21 E30.68942
G1 X114.574 Y146.477 E30.77594
G1 X112.104 Y145.829 E30.86087
G1 X109.632 Y145.254 E30.94529
G1 X107.169 Y144.754 E31.02888
G1 X104.647 Y144.316 E31.11401
