;FLAVOR:Marlin
;TIME:34419
;Filament used: 26.943m
;Layer height: 0.2
;MINX:7.5
;MINY:44
;MINZ:0.2
;MAXX:227.5
;MAXY:152.5
;MAXZ:37
;TARGET_MACHINE.NAME:Creality Ender-3
;Generated with Cura_SteamEngine 5.6.0
M140 S50
M105
M190 S50
M104 S200
M105
M109 S200
M82 ;absolute extrusion mode
; Ender 3 Custom Start G-code
G92 E0 ; Reset Extruder
G28 ; Home all axes
G1 Z2.0 F3000 ; Move Z Axis up little to prevent scratching of Heat Bed
G1 X0.1 Y20 Z0.3 F5000.0 ; Move to start position
G1 X0.1 Y200.0 Z0.3 F1500.0 E15 ; Draw the first line
G1 X0.4 Y200.0 Z0.3 F5000.0 ; Move to side a little
G1 X0.4 Y20 Z0.3 F1500.0 E30 ; Draw the second line
G92 E0 ; Reset Extruder
G1 Z2.0 F3000 ; Move Z Axis up little to prevent scratching of Heat Bed
G1 X5 Y20 Z0.3 F5000.0 ; Move over to prevent blob squish
G92 E0
G92 E0
G1 F2700 E-5
;LAYER_COUNT:185
;LAYER:0
M107
G0 F6000 X15.112 Y44.548 Z0.2
;TYPE:SKIRT
G1 F2700 E0
G1 F1200 X16.049 Y44.289 E0.03233
G1 X17.016 Y44.111 E0.06504
G1 X18.155 Y44.015 E0.10305
G1 X18.812 Y44 E0.12491
G1 X215.804 Y44 E6.67689
G1 X216.684 Y44.013 E6.70616
G1 X217.656 Y44.072 E6.73855
G1 X218.619 Y44.218 E6.77095
G1 X219.566 Y44.449 E6.80337
G1 X220.454 Y44.749 E6.83454
G1 X221.346 Y45.139 E6.86692
G1 X222.229 Y45.626 E6.90046
G1 X222.98 Y46.128 E6.93051
G1 X223.795 Y46.786 E6.96535
G1 X224.493 Y47.464 E6.99771
G1 X225.129 Y48.201 E7.03009
G1 X225.699 Y48.991 E7.06249
G1 X226.161 Y49.767 E7.09253
G1 X226.615 Y50.709 E7.12731
G1 X226.944 Y51.587 E7.15849
G1 X227.213 Y52.559 E7.19204
G1 X227.39 Y53.525 E7.2247
G1 X227.485 Y54.655 E7.26242
G1 X227.5 Y55.33 E7.28487
G1 X227.499 Y91.452 E8.4863
G1 X227.475 Y93.126 E8.54198
G1 X227.449 Y94.1 E8.57439
G1 X227.451 Y96.654 E8.65933
G1 X227.5 Y98.803 E8.73083
G1 X227.499 Y140.9 E10.13098
G1 X227.488 Y141.663 E10.15636
G1 X227.431 Y142.636 E10.18878
G1 X227.286 Y143.599 E10.22117
G1 X227.057 Y144.545 E10.25354
G1 X226.746 Y145.469 E10.28597
G1 X226.354 Y146.36 E10.31834
G1 X225.886 Y147.212 E10.35068
G1 X225.364 Y147.993 E10.38192
G1 X224.731 Y148.778 E10.41546
G1 X224.106 Y149.429 E10.44548
G1 X223.317 Y150.117 E10.48029
G1 X222.557 Y150.667 E10.5115
G1 X221.69 Y151.184 E10.54507
G1 X220.812 Y151.606 E10.57747
G1 X219.901 Y151.948 E10.60984
G1 X218.962 Y152.209 E10.64225
G1 X217.996 Y152.387 E10.67492
G1 X216.845 Y152.485 E10.71334
G1 X216.17 Y152.5 E10.7358
G1 X19.064 Y152.499 E17.29157
G1 X18.331 Y152.488 E17.31595
G1 X17.359 Y152.431 E17.34834
G1 X16.396 Y152.285 E17.38073
G1 X15.45 Y152.056 E17.4131
G1 X14.526 Y151.744 E17.44554
G1 X13.636 Y151.352 E17.47789
G1 X12.813 Y150.901 E17.5091
G1 X11.974 Y150.34 E17.54267
G1 X11.27 Y149.774 E17.57271
G1 X10.517 Y149.049 E17.60748
G1 X9.88 Y148.313 E17.63986
G1 X9.35 Y147.582 E17.66989
G1 X8.814 Y146.685 E17.70464
G1 X8.392 Y145.807 E17.73704
G1 X8.05 Y144.895 E17.76944
G1 X7.79 Y143.957 E17.80181
G1 X7.612 Y142.988 E17.83458
G1 X7.514 Y141.809 E17.87393
G1 X7.5 Y141.158 E17.89559
G1 X7.501 Y55.525 E20.74375
G1 X7.512 Y54.825 E20.76704
G1 X7.57 Y53.852 E20.79946
G1 X7.716 Y52.889 E20.83185
G1 X7.946 Y51.943 E20.86423
G1 X8.259 Y51.02 E20.89665
G1 X8.651 Y50.13 E20.92899
G1 X9.121 Y49.277 E20.96139
G1 X9.664 Y48.469 E20.99377
G1 X10.231 Y47.765 E21.02383
G1 X10.956 Y47.013 E21.05857
G1 X11.692 Y46.376 E21.09095
G1 X12.424 Y45.846 E21.12101
G1 X13.321 Y45.311 E21.15574
G1 X14.199 Y44.89 E21.18813
G1 X15.112 Y44.548 E21.22056
G0 F6000 X15.219 Y44.933
G1 F1200 X16.122 Y44.682 E21.25173
G1 X17.05 Y44.51 E21.28312
G1 X18.189 Y44.414 E21.32114
G1 X18.821 Y44.4 E21.34216
G1 X215.798 Y44.4 E27.89365
G1 X216.66 Y44.412 E27.92232
G1 X217.597 Y44.468 E27.95354
G1 X218.525 Y44.607 E27.98475
G1 X219.438 Y44.828 E28.01599
G1 X220.294 Y45.116 E28.04603
G1 X221.186 Y45.506 E28.07841
G1 X222.007 Y45.959 E28.1096
G1 X222.758 Y46.461 E28.13964
G1 X223.517 Y47.073 E28.17207
G1 X224.191 Y47.726 E28.20329
G1 X224.805 Y48.435 E28.23448
G1 X225.355 Y49.196 E28.26571
G1 X225.817 Y49.972 E28.29575
G1 X226.24 Y50.849 E28.32813
G1 X226.569 Y51.727 E28.35932
G1 X226.82 Y52.632 E28.39055
G1 X226.991 Y53.559 E28.42191
G1 X227.086 Y54.689 E28.45962
G1 X227.1 Y55.33 E28.48095
G1 X227.099 Y91.446 E29.68217
G1 X227.075 Y93.115 E29.73769
G1 X227.049 Y94.089 E29.77009
G1 X227.051 Y96.654 E29.85541
G1 X227.1 Y98.803 E29.9269
G1 X227.099 Y140.895 E31.32689
G1 X227.089 Y141.64 E31.35167
G1 X227.035 Y142.577 E31.38288
G1 X226.897 Y143.506 E31.41412
G1 X226.678 Y144.418 E31.44532
G1 X226.38 Y145.308 E31.47653
G1 X226.003 Y146.168 E31.50777
G1 X225.553 Y146.99 E31.53893
G1 X225.031 Y147.771 E31.57018
G1 X224.442 Y148.501 E31.60138
G1 X223.817 Y149.152 E31.63139
G1 X223.082 Y149.793 E31.66383
G1 X222.322 Y150.343 E31.69503
G1 X221.516 Y150.824 E31.72625
G1 X220.671 Y151.232 E31.75746
G1 X219.793 Y151.563 E31.78867
G1 X218.889 Y151.816 E31.81989
G1 X217.962 Y151.988 E31.85125
G1 X216.811 Y152.086 E31.88967
G1 X216.17 Y152.1 E31.91099
G1 X19.07 Y152.099 E38.46657
G1 X18.354 Y152.089 E38.49038
G1 X17.418 Y152.035 E38.52157
G1 X16.489 Y151.896 E38.55281
G1 X15.577 Y151.677 E38.58401
G1 X14.687 Y151.378 E38.61523
G1 X13.828 Y151.001 E38.64643
G1 X13.005 Y150.55 E38.67765
G1 X12.225 Y150.028 E38.70886
G1 X11.521 Y149.462 E38.73891
G1 X10.819 Y148.787 E38.7713
G1 X10.204 Y148.078 E38.80252
G1 X9.674 Y147.347 E38.83255
G1 X9.174 Y146.511 E38.86495
G1 X8.766 Y145.666 E38.89616
G1 X8.435 Y144.788 E38.92736
G1 X8.183 Y143.884 E38.95858
G1 X8.011 Y142.955 E38.99
G1 X7.913 Y141.776 E39.02935
G1 X7.9 Y141.158 E39.04991
G1 X7.901 Y55.531 E41.89788
G1 X7.911 Y54.848 E41.92059
G1 X7.966 Y53.911 E41.95181
G1 X8.105 Y52.983 E41.98302
G1 X8.325 Y52.071 E42.01423
G1 X8.625 Y51.181 E42.04546
G1 X9.002 Y50.322 E42.07667
G1 X9.453 Y49.5 E42.10785
G1 X9.976 Y48.72 E42.13908
G1 X10.543 Y48.016 E42.16915
G1 X11.218 Y47.315 E42.20152
G1 X11.927 Y46.7 E42.23273
G1 X12.659 Y46.17 E42.26279
G1 X13.495 Y45.671 E42.29517
G1 X14.34 Y45.264 E42.32637
G1 X15.219 Y44.933 E42.35761
G0 F6000 X15.327 Y45.318
G1 F1200 X16.196 Y45.075 E42.38762
G1 X17.084 Y44.909 E42.41767
G1 X18.223 Y44.813 E42.45568
G1 X18.83 Y44.8 E42.47588
G1 X215.793 Y44.8 E49.02689
G1 X216.637 Y44.811 E49.05497
G1 X217.539 Y44.864 E49.08502
G1 X218.432 Y44.996 E49.11504
G1 X219.31 Y45.207 E49.14508
G1 X220.166 Y45.495 E49.17512
G1 X220.993 Y45.857 E49.20514
G1 X221.785 Y46.292 E49.2352
G1 X222.536 Y46.794 E49.26524
G1 X223.239 Y47.361 E49.29528
G1 X223.889 Y47.988 E49.32532
G1 X224.481 Y48.67 E49.35536
G1 X225.011 Y49.401 E49.38539
G1 X225.473 Y50.177 E49.41543
G1 X225.866 Y50.99 E49.44546
G1 X226.184 Y51.835 E49.47549
G1 X226.427 Y52.705 E49.50553
G1 X226.592 Y53.593 E49.53557
G1 X226.687 Y54.723 E49.57329
G1 X226.7 Y55.33 E49.59348
G1 X226.699 Y91.44 E50.79451
G1 X226.675 Y93.104 E50.84986
G1 X226.649 Y94.078 E50.88226
G1 X226.651 Y96.654 E50.96794
G1 X226.7 Y98.803 E51.03944
G1 X226.699 Y140.89 E52.43926
G1 X226.69 Y141.617 E52.46344
G1 X226.639 Y142.519 E52.49349
G1 X226.508 Y143.413 E52.52354
G1 X226.299 Y144.291 E52.55356
G1 X226.013 Y145.148 E52.58361
G1 X225.652 Y145.976 E52.61365
G1 X225.22 Y146.768 E52.64365
G1 X224.719 Y147.52 E52.67371
G1 X224.153 Y148.224 E52.70375
G1 X223.528 Y148.875 E52.73377
G1 X222.847 Y149.469 E52.76382
G1 X222.116 Y150 E52.79388
G1 X221.342 Y150.464 E52.82389
G1 X220.529 Y150.858 E52.85394
G1 X219.685 Y151.178 E52.88396
G1 X218.815 Y151.423 E52.91402
G1 X217.928 Y151.589 E52.94404
G1 X216.777 Y151.687 E52.98246
G1 X216.17 Y151.7 E53.00265
G1 X19.075 Y151.699 E59.55806
G1 X18.377 Y151.69 E59.58127
G1 X17.476 Y151.639 E59.61129
G1 X16.582 Y151.507 E59.64135
G1 X15.704 Y151.298 E59.67137
G1 X14.847 Y151.011 E59.70142
G1 X14.02 Y150.65 E59.73144
G1 X13.227 Y150.217 E59.76149
G1 X12.476 Y149.716 E59.79151
G1 X11.772 Y149.15 E59.82156
G1 X11.121 Y148.524 E59.8516
G1 X10.528 Y147.843 E59.88163
G1 X9.998 Y147.112 E59.91166
G1 X9.534 Y146.337 E59.94171
G1 X9.14 Y145.524 E59.97176
G1 X8.82 Y144.68 E60.00178
G1 X8.576 Y143.81 E60.03183
G1 X8.41 Y142.922 E60.06188
G1 X8.313 Y141.767 E60.10043
G1 X8.3 Y141.158 E60.12069
G1 X8.301 Y55.536 E62.96849
G1 X8.31 Y54.871 E62.99061
G1 X8.362 Y53.969 E63.02066
G1 X8.494 Y53.076 E63.05068
G1 X8.704 Y52.198 E63.08071
G1 X8.991 Y51.341 E63.11077
G1 X9.353 Y50.514 E63.14079
G1 X9.786 Y49.722 E63.17081
G1 X10.288 Y48.971 E63.20086
G1 X10.855 Y48.267 E63.23092
G1 X11.481 Y47.617 E63.26094
G1 X12.162 Y47.024 E63.29097
G1 X12.894 Y46.494 E63.32103
G1 X13.669 Y46.031 E63.35106
G1 X14.482 Y45.638 E63.38109
G1 X15.327 Y45.318 E63.41114
G1 F2700 E58.41114
;MESH:water supply platform_RIGHT.stl
G0 F6000 X18.914 Y54.335
G0 X18.914 Y55.414
G0 X75.909 Y56.113
;TYPE:WALL-INNER
G1 F2700 E63.41114
G1 F816.3 X76.498 Y56.074 E63.44
G1 F820.5 X77.06 Y56.111 E63.4674
G1 F2700 E58.4674
G0 F6000 X87.556 Y56.98
G0 X88.492 Y59.387
G0 X88.721 Y59.783
G0 X89.018 Y60.118
G0 X89.445 Y60.424
G0 X90.03 Y60.668
G0 X90.7 Y60.684
G0 X93.403 Y60.125
G0 X93.453 Y56.98
G0 X143.537 Y56.979
G0 X145.048 Y61.498
G0 X149.615 Y59.665
G0 X149.462 Y56.979
G0 X157.537 Y56.979
G0 X159.234 Y61.562
G0 X163.672 Y59.438
G0 X163.462 Y56.979
G0 X214.528 Y56.972
G0 X215.63 Y91.13
G0 X215.9 Y91.4
G1 F2700 E63.4674
G1 F1200 X215.9 Y55.6 E64.65811
G1 X19.1 Y55.6 E71.20371
G1 X19.1 Y91.4 E72.39442
G1 X215.9 Y91.4 E78.94002
G0 F6000 X215.63 Y91.13
G0 X214.7 Y90.2
G1 F1200 X214.7 Y56.8 E80.0509
G1 X163.147 Y56.801 E81.76556
G1 X163.35 Y57.175 E81.77972
G1 X163.514 Y57.593 E81.79465
G1 X163.58 Y57.854 E81.80361
G1 X163.635 Y58.297 E81.81845
G1 X163.635 Y58.7 E81.83186
G1 X163.582 Y59.137 E81.8465
G1 X163.516 Y59.401 E81.85555
G1 X163.413 Y59.715 E81.86654
G1 X163.081 Y60.305 E81.88906
G1 X162.872 Y60.566 E81.90018
G1 X162.486 Y60.965 E81.91864
G1 X161.717 Y61.439 E81.94869
G1 X161.327 Y61.55 E81.96218
G1 X160.713 Y61.642 E81.98283
G1 X160.442 Y61.648 E81.99184
G1 X159.811 Y61.582 E82.01294
G1 X159.139 Y61.354 E82.03654
G1 X158.81 Y61.169 E82.0491
G1 X158.199 Y60.686 E82.075
G1 X157.953 Y60.371 E82.0883
G1 X157.568 Y59.677 E82.11469
G1 X157.419 Y59.146 E82.13304
G1 X157.365 Y58.703 E82.14788
G1 X157.365 Y58.3 E82.16128
G1 X157.418 Y57.863 E82.17592
G1 X157.484 Y57.599 E82.18498
G1 X157.652 Y57.169 E82.20033
G1 X157.858 Y56.801 E82.21436
G1 X149.147 Y56.801 E82.50409
G1 X149.35 Y57.175 E82.51824
G1 X149.514 Y57.593 E82.53317
G1 X149.58 Y57.854 E82.54213
G1 X149.635 Y58.297 E82.55698
G1 X149.635 Y58.7 E82.57038
G1 X149.582 Y59.137 E82.58502
G1 X149.481 Y59.542 E82.5989
G1 X149.348 Y59.83 E82.60945
G1 X149.146 Y60.198 E82.62342
G1 X148.965 Y60.472 E82.63434
G1 X148.564 Y60.879 E82.65334
G1 X148.351 Y61.048 E82.66239
G1 X147.816 Y61.374 E82.68322
G1 X147.434 Y61.534 E82.697
G1 X146.713 Y61.642 E82.72125
G1 X146.442 Y61.648 E82.73026
G1 X145.815 Y61.582 E82.75123
G1 X145.171 Y61.372 E82.77376
G1 X144.805 Y61.165 E82.78775
G1 X144.302 Y60.769 E82.80904
G1 X144.04 Y60.494 E82.82167
G1 X143.886 Y60.258 E82.83104
G1 X143.581 Y59.698 E82.85225
G1 X143.486 Y59.406 E82.86247
G1 X143.419 Y59.146 E82.8714
G1 X143.365 Y58.703 E82.88624
G1 X143.365 Y58.3 E82.89964
G1 X143.418 Y57.863 E82.91429
G1 X143.484 Y57.599 E82.92334
G1 X143.652 Y57.169 E82.93869
G1 X143.858 Y56.801 E82.95272
G1 X93.152 Y56.802 E84.63921
G1 X93.286 Y57.036 E84.64817
G1 X93.464 Y57.452 E84.66322
G1 X93.572 Y57.836 E84.67649
G1 X93.64 Y58.328 E84.69301
G1 X93.64 Y58.666 E84.70425
G1 X93.585 Y59.109 E84.7191
G1 X93.479 Y59.527 E84.73344
G1 X93.394 Y59.783 E84.74242
G1 X93.266 Y60.04 E84.75196
G1 X92.862 Y60.591 E84.77469
G1 X92.334 Y61.09 E84.79885
G1 X92.006 Y61.283 E84.81151
G1 X91.326 Y61.55 E84.83581
G1 X90.903 Y61.648 E84.85025
G1 X89.968 Y61.625 E84.88136
G1 X89.591 Y61.524 E84.89434
G1 X88.958 Y61.257 E84.91719
G1 X88.38 Y60.84 E84.94089
G1 X87.932 Y60.34 E84.96322
G1 X87.6 Y59.754 E84.98562
G1 X87.428 Y59.164 E85.00606
G1 X87.36 Y58.672 E85.02258
G1 X87.36 Y58.334 E85.03383
G1 X87.415 Y57.891 E85.04867
G1 X87.52 Y57.473 E85.06301
G1 X87.833 Y56.801 E85.08766
G1 X79.152 Y56.802 E85.3764
G1 X79.286 Y57.036 E85.38536
G1 X79.464 Y57.452 E85.40041
G1 X79.572 Y57.836 E85.41368
G1 X79.64 Y58.328 E85.4302
G1 X79.64 Y58.666 E85.44144
G1 X79.585 Y59.109 E85.45629
G1 X79.409 Y59.769 E85.47901
G1 X79.227 Y60.091 E85.49131
G1 X78.87 Y60.587 E85.51164
G1 X78.34 Y61.081 E85.53573
G1 X78.04 Y61.264 E85.54742
G1 X77.419 Y61.522 E85.56979
G1 X77.178 Y61.592 E85.57814
G1 X76.926 Y61.628 E85.5866
G1 X76.223 Y61.644 E85.60999
G1 X75.762 Y61.559 E85.62558
G1 X75.491 Y61.484 E85.63493
G1 X74.948 Y61.249 E85.65461
G1 X74.468 Y60.904 E85.67427
G1 X74.235 Y60.684 E85.68493
G1 X73.949 Y60.356 E85.69941
G1 X73.646 Y59.851 E85.71899
G1 X73.537 Y59.548 E85.7297
G1 X73.428 Y59.164 E85.74298
G1 X73.36 Y58.672 E85.7595
G1 X73.36 Y58.334 E85.77074
G1 X73.415 Y57.891 E85.78559
G1 X73.52 Y57.473 E85.79992
G1 X73.833 Y56.801 E85.82458
G1 X20.3 Y56.8 E87.60509
G1 X20.3 Y90.2 E88.71598
G1 X214.7 Y90.2 E95.18175
G0 F6000 X215.1 Y90.6
G1 F1200 X215.1 Y56.4 E96.31925
G1 X162.27 Y56.401 E98.07638
G1 X162.402 Y56.504 E98.08195
G1 X162.763 Y56.933 E98.1006
G1 X162.999 Y57.366 E98.117
G1 X163.126 Y57.692 E98.12864
G1 X163.193 Y57.952 E98.13757
G1 X163.235 Y58.297 E98.14913
G1 X163.235 Y58.7 E98.16253
G1 X163.194 Y59.04 E98.17392
G1 X163.083 Y59.484 E98.18914
G1 X162.705 Y60.161 E98.21493
G1 X162.215 Y60.662 E98.23824
G1 X161.587 Y61.051 E98.26281
G1 X161.318 Y61.142 E98.27226
G1 X160.57 Y61.26 E98.29744
G1 X159.901 Y61.19 E98.31982
G1 X159.322 Y60.997 E98.34011
G1 X159.041 Y60.842 E98.35079
G1 X158.544 Y60.45 E98.37184
G1 X158.302 Y60.187 E98.38373
G1 X157.959 Y59.55 E98.40779
G1 X157.873 Y59.308 E98.41633
G1 X157.807 Y59.048 E98.42526
G1 X157.765 Y58.703 E98.43682
G1 X157.765 Y58.3 E98.45022
G1 X157.806 Y57.96 E98.46161
G1 X157.872 Y57.696 E98.47066
G1 X158.003 Y57.362 E98.48259
G1 X158.195 Y57.012 E98.49587
G1 X158.416 Y56.712 E98.50826
G1 X158.717 Y56.401 E98.52266
G1 X148.27 Y56.401 E98.87013
G1 X148.402 Y56.504 E98.8757
G1 X148.763 Y56.933 E98.89434
G1 X148.999 Y57.366 E98.91075
G1 X149.126 Y57.692 E98.92238
G1 X149.193 Y57.952 E98.93131
G1 X149.235 Y58.297 E98.94287
G1 X149.235 Y58.7 E98.95628
G1 X149.194 Y59.04 E98.96767
G1 X149.102 Y59.407 E98.98025
G1 X148.997 Y59.638 E98.98869
G1 X148.705 Y60.159 E99.00856
G1 X148.234 Y60.652 E99.03123
G1 X147.607 Y61.036 E99.05569
G1 X147.247 Y61.158 E99.06833
G1 X146.567 Y61.26 E99.0912
G1 X145.901 Y61.19 E99.11347
G1 X145.342 Y61.005 E99.13306
G1 X145.093 Y60.877 E99.14237
G1 X144.561 Y60.464 E99.16477
G1 X144.309 Y60.2 E99.17691
G1 X143.917 Y59.479 E99.2042
G1 X143.807 Y59.048 E99.219
G1 X143.765 Y58.703 E99.23056
G1 X143.765 Y58.3 E99.24396
G1 X143.806 Y57.96 E99.25535
G1 X143.872 Y57.696 E99.2644
G1 X144.003 Y57.362 E99.27634
G1 X144.195 Y57.012 E99.28961
G1 X144.416 Y56.712 E99.30201
G1 X144.717 Y56.401 E99.3164
G1 X92.266 Y56.401 E101.06093
G1 X92.466 Y56.581 E101.06988
G1 X92.643 Y56.782 E101.07879
G1 X92.805 Y57.004 E101.08793
G1 X92.94 Y57.237 E101.09688
G1 X93.079 Y57.561 E101.10861
G1 X93.187 Y57.945 E101.12188
G1 X93.24 Y58.328 E101.13474
G1 X93.24 Y58.666 E101.14598
G1 X93.198 Y59.011 E101.15754
G1 X93.059 Y59.56 E101.17637
G1 X92.926 Y59.827 E101.1863
G1 X92.564 Y60.325 E101.20677
G1 X92.166 Y60.699 E101.22494
G1 X91.907 Y60.891 E101.23566
G1 X91.197 Y61.171 E101.26105
G1 X90.868 Y61.247 E101.27228
G1 X90.107 Y61.229 E101.2976
G1 X89.788 Y61.169 E101.30839
G1 X89.201 Y60.931 E101.32946
G1 X88.64 Y60.536 E101.35228
G1 X88.271 Y60.123 E101.3707
G1 X87.972 Y59.601 E101.39071
G1 X87.812 Y59.055 E101.40963
G1 X87.76 Y58.672 E101.42249
G1 X87.76 Y58.334 E101.43373
G1 X87.802 Y57.989 E101.44529
